luts/ColorsLow.cube
LUT_3D_SIZE 16
-0.028638 -0.028638 -0.028638
0.063018 -0.028638 -0.028638
0.133290 -0.028639 -0.028639
0.202051 -0.028641 -0.028641
0.270615 -0.028643 -0.028643
0.339174 -0.028646 -0.028646
0.407716 -0.028652 -0.028652
0.476322 -0.028656 -0.028656
0.544847 -0.028664 -0.028664
0.613116 -0.028672 -0.028672
0.680991 -0.028682 -0.028682
0.748137 -0.028694 -0.028694
0.814312 -0.028706 -0.028706
0.879174 -0.028720 -0.028720
0.942909 -0.028734 -0.028734
1.006242 -0.028750 -0.028750
-0.028639 0.063018 -0.028639
0.063018 0.063018 -0.028639
0.133290 0.063582 -0.028640
0.202051 0.063880 -0.028642
0.270615 0.064065 -0.028644
0.339174 0.064197 -0.028647
0.407716 0.064300 -0.028652
0.476322 0.064381 -0.028657
0.544847 0.064436 -0.028665
0.613116 0.064447 -0.028673
0.680991 0.064413 -0.028683
0.748137 0.064314 -0.028694
0.814312 0.064142 -0.028707
0.879174 0.063883 -0.028721
0.942909 0.063571 -0.028734
1.006242 0.063280 -0.028751
-0.028642 0.133290 -0.028642
0.063581 0.133290 -0.028642
0.133289 0.133289 -0.028642
0.202051 0.133845 -0.028644
0.270615 0.134197 -0.028646
0.339174 0.134446 -0.028650
0.407716 0.134638 -0.028654
0.476322 0.134793 -0.028659
0.544847 0.134901 -0.028668
0.613116 0.134926 -0.028675
0.680991 0.134863 -0.028685
0.748137 0.134686 -0.028696
0.814312 0.134369 -0.028709
0.879174 0.133895 -0.028722
0.942909 0.133315 -0.028737
1.006242 0.132780 -0.028754
-0.028646 0.202050 -0.028646
0.063878 0.202050 -0.028646
0.133845 0.202050 -0.028647
0.202050 0.202050 -0.028649
0.270614 0.202576 -0.028652
0.339174 0.202951 -0.028654
0.407715 0.203232 -0.028659
0.476322 0.203465 -0.028665
0.544847 0.203631 -0.028672
0.613116 0.203659 -0.028681
0.680991 0.203569 -0.028691
0.748137 0.203300 -0.028702
0.814312 0.202835 -0.028714
0.879174 0.202128 -0.028728
0.942909 0.201288 -0.028742
1.006242 0.200482 -0.028759
-0.028654 0.270614 -0.028654
0.064061 0.270614 -0.028654
0.134196 0.270614 -0.028655
0.202575 0.270614 -0.028656
0.270614 0.270614 -0.028659
0.339173 0.271103 -0.028663
0.407715 0.271483 -0.028667
0.476322 0.271795 -0.028673
0.544847 0.272008 -0.028681
0.613116 0.272067 -0.028688
0.680991 0.271949 -0.028699
0.748137 0.271594 -0.028710
0.814312 0.270956 -0.028722
0.879174 0.270037 -0.028735
0.942909 0.268893 -0.028750
1.006242 0.267839 -0.028766
-0.028667 0.339173 -0.028667
0.064190 0.339173 -0.028667
0.134444 0.339173 -0.028668
0.202950 0.339173 -0.028669
0.271103 0.339173 -0.028670
0.339173 0.339173 -0.028674
0.407715 0.339625 -0.028679
0.476322 0.340016 -0.028685
0.544846 0.340289 -0.028693
0.613116 0.340344 -0.028701
0.680991 0.340192 -0.028710
0.748137 0.339752 -0.028721
0.814312 0.339000 -0.028733
0.879174 0.337812 -0.028746
0.942908 0.336394 -0.028760
1.006242 0.335079 -0.028776
-0.028682 0.407715 -0.028682
0.064291 0.407715 -0.028681
0.134635 0.407715 -0.028682
0.203230 0.407715 -0.028684
0.271482 0.407714 -0.028686
0.339625 0.407714 -0.028690
0.407714 0.407714 -0.028695
0.476321 0.408178 -0.028700
0.544846 0.408494 -0.028707
0.613116 0.408572 -0.028716
0.680990 0.408386 -0.028726
0.748137 0.407866 -0.028736
0.814312 0.406932 -0.028749
0.879173 0.405545 -0.028761
0.942908 0.403824 -0.028775
1.006241 0.402238 -0.028791
-0.028701 0.476321 -0.028701
0.064365 0.476321 -0.028702
0.134788 0.476321 -0.028703
0.203462 0.476321 -0.028703
0.271793 0.476321 -0.028706
0.340015 0.476321 -0.028709
0.408177 0.476321 -0.028714
0.476321 0.476321 -0.028720
0.544845 0.476699 -0.028727
0.613115 0.476798 -0.028735
0.680990 0.476582 -0.028745
0.748136 0.475965 -0.028757
0.814312 0.474885 -0.028768
0.879173 0.473247 -0.028780
0.942908 0.471263 -0.028794
1.006241 0.469422 -0.028810
-0.028726 0.544845 -0.028726
0.064416 0.544845 -0.028725
0.134895 0.544845 -0.028726
0.203626 0.544845 -0.028728
0.272005 0.544845 -0.028729
0.340288 0.544845 -0.028733
0.408493 0.544845 -0.028737
0.476699 0.544845 -0.028743
0.544845 0.544845 -0.028750
0.613115 0.544946 -0.028759
0.680990 0.544705 -0.028768
0.748136 0.544020 -0.028778
0.814311 0.542748 -0.028790
0.879173 0.540900 -0.028803
0.942908 0.538615 -0.028818
1.006241 0.536513 -0.028832
-0.028754 0.613115 -0.028754
0.064422 0.613115 -0.028754
0.134917 0.613115 -0.028754
0.203652 0.613115 -0.028756
0.272063 0.613115 -0.028758
0.340342 0.613115 -0.028760
0.408571 0.613115 -0.028766
0.476797 0.613115 -0.028771
0.544946 0.613115 -0.028778
0.613115 0.613115 -0.028785
0.680989 0.612847 -0.028795
0.748135 0.612051 -0.028807
0.814311 0.610650 -0.028817
0.879172 0.608566 -0.028831
0.942908 0.605967 -0.028844
1.006241 0.603620 -0.028860
-0.028786 0.680990 -0.028786
0.064378 0.680990 -0.028784
0.134852 0.680990 -0.028785
0.203560 0.680989 -0.028787
0.271944 0.680989 -0.028789
0.340189 0.680989 -0.028793
0.408383 0.680989 -0.028797
0.476581 0.680989 -0.028803
0.544704 0.680989 -0.028810
0.612846 0.680989 -0.028818
0.680989 0.680989 -0.028828
0.748135 0.680114 -0.028839
0.814311 0.678596 -0.028850
0.879172 0.676282 -0.028863
0.942907 0.673403 -0.028876
1.006241 0.670780 -0.028891
-0.028822 0.748135 -0.028822
0.064272 0.748135 -0.028822
0.134669 0.748135 -0.028823
0.203303 0.748135 -0.028824
0.271589 0.748135 -0.028827
0.339748 0.748135 -0.028831
0.407863 0.748135 -0.028836
0.475963 0.748135 -0.028841
0.544018 0.748135 -0.028847
0.612050 0.748134 -0.028856
0.680114 0.748134 -0.028866
0.748134 0.748134 -0.028876
0.814310 0.746441 -0.028888
0.879172 0.743878 -0.028899
0.942907 0.740738 -0.028913
1.006240 0.737890 -0.028927
-0.028864 0.814310 -0.028864
0.064088 0.814310 -0.028864
0.134349 0.814310 -0.028864
0.202822 0.814310 -0.028866
0.270959 0.814310 -0.028868
0.338996 0.814310 -0.028872
0.406927 0.814310 -0.028876
0.474882 0.814310 -0.028881
0.542746 0.814310 -0.028889
0.610623 0.814310 -0.028897
0.678595 0.814310 -0.028906
0.746441 0.814310 -0.028917
0.814310 0.814310 -0.028931
0.879171 0.811525 -0.028942
0.942906 0.808106 -0.028954
1.006240 0.804986 -0.028967
-0.028909 0.879171 -0.028909
0.063823 0.879171 -0.028909
0.133874 0.879171 -0.028910
0.202120 0.879171 -0.028911
0.270028 0.879171 -0.028914
0.337807 0.879171 -0.028917
0.405539 0.879171 -0.028921
0.473243 0.879171 -0.028927
0.540897 0.879171 -0.028933
0.608564 0.879171 -0.028942
0.676281 0.879171 -0.028951
0.743876 0.879171 -0.028962
0.811525 0.879171 -0.028974
0.879171 0.879171 -0.028987
0.942906 0.875436 -0.029000
1.006240 0.872030 -0.029013
-0.028957 0.942906 -0.028957
0.063499 0.942906 -0.028957
0.133290 0.942906 -0.028958
0.201269 0.942906 -0.028959
0.268883 0.942906 -0.028963
0.336393 0.942906 -0.028965
0.403816 0.942906 -0.028970
0.471259 0.942906 -0.028976
0.538611 0.942906 -0.028982
0.605965 0.942906 -0.028990
0.673401 0.942906 -0.029000
0.740736 0.942906 -0.029011
0.808105 0.942906 -0.029022
0.875436 0.942906 -0.029037
0.942905 0.942905 -0.029051
1.006240 0.939213 -0.029065
-0.029012 1.006240 -0.029012
0.063196 1.006240 -0.029012
0.132751 1.006240 -0.029013
0.200468 1.006240 -0.029012
0.267822 1.006240 -0.029015
0.335072 1.006240 -0.029018
0.402229 1.006240 -0.029022
0.469417 1.006240 -0.029028
0.536508 1.006240 -0.029035
0.603617 1.006240 -0.029044
0.670778 1.006240 -0.029052
0.737887 1.006240 -0.029063
0.804985 1.006240 -0.029075
0.872029 1.006239 -0.029089
0.939212 1.006239 -0.029104
1.006239 1.006239 -0.029120
-0.028638 -0.028638 0.063018
0.063018 -0.028638 0.063018
0.133290 -0.028639 0.063582
0.202051 -0.028641 0.063880
0.270615 -0.028643 0.064066
0.339174 -0.028646 0.064198
0.407716 -0.028652 0.064300
0.476322 -0.028657 0.064381
0.544847 -0.028664 0.064436
0.613116 -0.028672 0.064447
0.680991 -0.028682 0.064413
0.748137 -0.028694 0.064314
0.814312 -0.028706 0.064142
0.879174 -0.028720 0.063883
0.942909 -0.028734 0.063571
1.006242 -0.028750 0.063281
-0.028639 0.063018 0.063018
0.063018 0.063018 0.063018
0.138548 0.058275 0.058275
0.210280 0.048052 0.048052
0.278382 0.039858 0.039858
0.345678 0.035102 0.035102
0.413130 0.032245 0.032245
0.480831 0.030443 0.030443
0.548653 0.029321 0.029321
0.616380 0.028643 0.028643
0.683801 0.028250 0.028250
0.750642 0.028045 0.028045
0.816484 0.027941 0.027941
0.881045 0.027894 0.027894
0.944580 0.027846 0.027846
1.006245 0.050382 0.050382
-0.028642 0.133290 0.063581
0.048304 0.135182 0.048304
0.133890 0.133890 0.045759
0.206092 0.132104 0.041028
0.275566 0.130346 0.036418
0.343976 0.129103 0.033403
0.412084 0.128307 0.031411
0.480183 0.127782 0.030051
0.548245 0.127439 0.029161
0.616071 0.127155 0.028605
0.683621 0.126895 0.028283
0.750482 0.126594 0.028109
0.816360 0.126206 0.028024
0.880969 0.125713 0.027984
0.944539 0.125134 0.027944
1.006245 0.128786 0.050381
-0.028646 0.202050 0.063878
0.037104 0.203667 0.037104
0.129774 0.203247 0.036435
0.202544 0.202544 0.035328
0.272811 0.201974 0.033035
0.341995 0.201426 0.031461
0.410686 0.200977 0.030369
0.479251 0.200646 0.029543
0.547572 0.200385 0.028966
0.615627 0.200107 0.028593
0.683280 0.199787 0.028375
0.750234 0.199367 0.028266
0.816190 0.198782 0.028211
0.880841 0.198005 0.028183
0.944464 0.197099 0.028144
1.006245 0.198300 0.050382
-0.028654 0.270614 0.064061
0.031811 0.271834 0.031811
0.127938 0.271662 0.031625
0.200863 0.271359 0.031296
0.270976 0.270976 0.030883
0.340455 0.270864 0.030110
0.409443 0.270732 0.029611
0.478296 0.270624 0.029199
0.546840 0.270489 0.028897
0.615050 0.270258 0.028700
0.682865 0.269920 0.028593
0.749899 0.269393 0.028538
0.815953 0.268637 0.028519
0.880632 0.267615 0.028505
0.944302 0.266392 0.028464
1.006245 0.266416 0.050377
-0.028667 0.339173 0.064190
0.029817 0.340052 0.029817
0.127186 0.339986 0.029774
0.200070 0.339850 0.029697
0.270220 0.339641 0.029604
0.339422 0.339422 0.029525
0.408540 0.339537 0.029345
0.477493 0.339598 0.029192
0.546165 0.339593 0.029076
0.614537 0.339429 0.029010
0.682415 0.339089 0.028983
0.749572 0.338492 0.028979
0.815629 0.337586 0.028986
0.880398 0.336311 0.028970
0.944084 0.334799 0.028917
1.006245 0.334072 0.050375
-0.028682 0.407715 0.064291
0.029347 0.408394 0.029347
0.126917 0.408356 0.029351
0.199750 0.408313 0.029367
0.269897 0.408191 0.029403
0.339130 0.408061 0.029467
0.407905 0.407905 0.029579
0.476907 0.408154 0.029555
0.545648 0.408247 0.029555
0.614067 0.408153 0.029561
0.682049 0.407800 0.029583
0.749224 0.407116 0.029606
0.815381 0.406079 0.029613
0.880161 0.404589 0.029593
0.943888 0.402790 0.029524
1.006245 0.401513 0.050374
-0.028701 0.476321 0.064365
0.029583 0.476884 0.029583
0.126873 0.476859 0.029607
0.199647 0.476829 0.029658
0.269780 0.476763 0.029743
0.339050 0.476678 0.029868
0.407873 0.476597 0.030043
0.476485 0.476485 0.030273
0.545270 0.476690 0.030316
0.613684 0.476625 0.030368
0.681675 0.476290 0.030404
0.748885 0.475551 0.030426
0.815124 0.474363 0.030424
0.879973 0.472642 0.030380
0.943671 0.470574 0.030283
1.006245 0.468848 0.050368
-0.028725 0.544845 0.064416
0.030237 0.545285 0.030237
0.126913 0.545268 0.030270
0.199629 0.545261 0.030331
0.269745 0.545236 0.030433
0.339017 0.545169 0.030582
0.407846 0.545102 0.030781
0.476506 0.545036 0.031032
0.544991 0.544991 0.031343
0.613429 0.544955 0.031386
0.681438 0.544598 0.031428
0.748650 0.543800 0.031438
0.814900 0.542455 0.031407
0.879808 0.540522 0.031331
0.943541 0.538160 0.031189
1.006245 0.536074 0.050363
-0.028754 0.613115 0.064422
0.031138 0.613485 0.031138
0.126968 0.613477 0.031174
0.199595 0.613462 0.031239
0.269654 0.613438 0.031342
0.338891 0.613387 0.031496
0.407702 0.613348 0.031699
0.476349 0.613303 0.031955
0.544813 0.613267 0.032263
0.613215 0.613215 0.032627
0.681246 0.612859 0.032641
0.748538 0.611961 0.032624
0.814706 0.610481 0.032555
0.879632 0.608345 0.032430
0.943368 0.605683 0.032236
1.006244 0.603296 0.050356
-0.028786 0.680990 0.064378
0.032178 0.681302 0.032178
0.126995 0.681296 0.032212
0.199484 0.681285 0.032276
0.269444 0.681268 0.032379
0.338616 0.681263 0.032528
0.407379 0.681234 0.032725
0.475965 0.681199 0.032969
0.544389 0.681180 0.033267
0.612741 0.681099 0.033616
0.681057 0.681057 0.034020
0.748326 0.680110 0.033957
0.814600 0.678568 0.033848
0.879471 0.676126 0.033673
0.943260 0.673201 0.033422
1.006244 0.670530 0.050342
-0.028822 0.748135 0.064272
0.033269 0.748447 0.033269
0.126958 0.748441 0.033299
0.199249 0.748429 0.033362
0.269077 0.748411 0.033458
0.338119 0.748386 0.033601
0.406732 0.748355 0.033780
0.475241 0.748317 0.034014
0.543560 0.748275 0.034295
0.611818 0.748279 0.034624
0.680048 0.748231 0.035005
0.748219 0.748219 0.035434
0.814460 0.746460 0.035263
0.879363 0.743841 0.035029
0.943106 0.740650 0.034720
1.006244 0.737701 0.050338
-0.028864 0.814310 0.064088
0.034347 0.814545 0.034347
0.126821 0.814542 0.034377
0.198829 0.814536 0.034434
0.268456 0.814527 0.034525
0.337276 0.814515 0.034655
0.405765 0.814499 0.034823
0.474067 0.814480 0.035038
0.542212 0.814458 0.035295
0.610289 0.814444 0.035600
0.678415 0.814419 0.035958
0.746404 0.814393 0.036362
0.814366 0.814366 0.036804
0.879272 0.811532 0.036508
0.943038 0.808051 0.036125
1.006244 0.804837 0.050312
-0.028909 0.879171 0.063823
0.035355 0.879335 0.035355
0.126545 0.879332 0.035382
0.198225 0.879328 0.035429
0.267543 0.879321 0.035512
0.336118 0.879312 0.035637
0.404308 0.879299 0.035796
0.472386 0.879308 0.035991
0.540289 0.879291 0.036227
0.608133 0.879272 0.036513
0.675965 0.879252 0.036834
0.743734 0.879230 0.037208
0.811508 0.879209 0.037622
0.879187 0.879187 0.038078
0.942982 0.875433 0.037620
1.006243 0.871926 0.050278
-0.028957 0.942906 0.063499
0.036254 0.943029 0.036254
0.126172 0.943027 0.036275
0.197447 0.943024 0.036324
0.266441 0.943017 0.036403
0.334687 0.943010 0.036510
0.402626 0.943025 0.036657
0.470361 0.943029 0.036829
0.537937 0.943014 0.037051
0.605514 0.942999 0.037312
0.673087 0.942983 0.037606
0.740506 0.942965 0.037941
0.807984 0.942947 0.038327
0.875390 0.942929 0.038741
0.942911 0.942911 0.039213
1.006243 0.939163 0.050259
-0.029012 1.006240 0.063196
0.050275 1.006243 0.050275
0.128758 1.006243 0.050275
0.198291 1.006243 0.050274
0.266404 1.006243 0.050272
0.334065 1.006243 0.050273
0.401504 1.006243 0.050270
0.468843 1.006243 0.050272
0.536070 1.006243 0.050267
0.603293 1.006243 0.050266
0.670528 1.006243 0.050262
0.737699 1.006243 0.050260
0.804836 1.006243 0.050260
0.871926 1.006243 0.050252
0.939162 1.006243 0.050247
1.006243 1.006243 0.050242
-0.028638 -0.028638 0.133290
0.063582 -0.028638 0.133290
0.133290 -0.028639 0.133290
0.202051 -0.028641 0.133845
0.270615 -0.028644 0.134198
0.339174 -0.028647 0.134447
0.407716 -0.028652 0.134639
0.476322 -0.028657 0.134793
0.544847 -0.028664 0.134902
0.613116 -0.028672 0.134926
0.680991 -0.028683 0.134863
0.748137 -0.028694 0.134686
0.814312 -0.028706 0.134369
0.879174 -0.028720 0.133896
0.942909 -0.028734 0.133315
1.006242 -0.028751 0.132780
-0.028639 0.063582 0.133290
0.060615 0.060615 0.139305
0.138309 0.056210 0.138309
0.209738 0.046965 0.135165
0.278015 0.039390 0.131886
0.345484 0.034890 0.129851
0.412985 0.032144 0.128671
0.480754 0.030397 0.127975
0.548590 0.029304 0.127540
0.616322 0.028637 0.127213
0.683797 0.028253 0.126923
0.750625 0.028057 0.126608
0.816471 0.027954 0.126208
0.881035 0.027896 0.125711
0.944572 0.027853 0.125133
1.006245 0.050382 0.128786
-0.028642 0.133290 0.133290
0.047363 0.134712 0.134712
0.133289 0.133289 0.133289
0.209341 0.128941 0.128941
0.282862 0.120117 0.120117
0.355188 0.109850 0.109850
0.425341 0.100003 0.100003
0.493940 0.091324 0.091324
0.561593 0.084008 0.084008
0.628674 0.077919 0.077919
0.695329 0.072852 0.072852
0.761291 0.068598 0.068598
0.826333 0.064973 0.064973
0.890165 0.061842 0.061842
0.953047 0.059040 0.059040
1.006262 0.107347 0.107347
-0.028646 0.202050 0.133845
0.036866 0.203516 0.129995
0.118242 0.206416 0.118242
0.204748 0.204748 0.114783
0.279488 0.200055 0.108422
0.351365 0.195373 0.100232
0.421533 0.191327 0.093012
0.490639 0.187835 0.086448
0.558972 0.184904 0.080641
0.626628 0.182433 0.075607
0.693749 0.180347 0.071251
0.760053 0.178500 0.067486
0.825378 0.176785 0.064206
0.889443 0.175140 0.061303
0.952467 0.173524 0.058672
1.006262 0.187655 0.107346
-0.028655 0.270614 0.134196
0.031746 0.271769 0.127997
0.098582 0.276205 0.098582
0.194375 0.275062 0.096519
0.273369 0.273369 0.093604
0.345975 0.270092 0.089989
0.416833 0.267493 0.085410
0.486701 0.265262 0.080851
0.555715 0.263306 0.076592
0.624021 0.261523 0.072699
0.691664 0.259875 0.069175
0.758405 0.258264 0.066009
0.824090 0.256624 0.063158
0.888378 0.254869 0.060562
0.951616 0.253062 0.058150
1.006262 0.259664 0.107346
-0.028667 0.339173 0.134445
0.029801 0.340032 0.127209
0.085445 0.343926 0.085445
0.186979 0.343275 0.084356
0.266634 0.342319 0.082759
0.341089 0.341089 0.080772
0.412504 0.339244 0.078402
0.482932 0.337744 0.075603
0.552525 0.336376 0.072589
0.621314 0.334990 0.069696
0.689433 0.333611 0.066949
0.756567 0.332099 0.064375
0.822549 0.330452 0.061969
0.887113 0.328531 0.059708
0.950650 0.326482 0.057547
1.006262 0.329349 0.107343
-0.028682 0.407715 0.134635
0.029349 0.408395 0.126927
0.076694 0.411578 0.076694
0.182427 0.411213 0.076117
0.262396 0.410653 0.075255
0.336923 0.409903 0.074147
0.409044 0.409044 0.072845
0.479791 0.408056 0.071019
0.549712 0.407086 0.069100
0.618873 0.406035 0.066969
0.687337 0.404869 0.064857
0.754750 0.403458 0.062796
0.821032 0.401746 0.060796
0.885888 0.399714 0.058849
0.949499 0.397440 0.056934
1.006262 0.398006 0.107342
-0.028702 0.476321 0.134788
0.029590 0.476876 0.126875
0.070569 0.479537 0.070569
0.179560 0.479310 0.070254
0.259715 0.478959 0.069780
0.334247 0.478500 0.069155
0.406416 0.477963 0.068414
0.477342 0.477342 0.067582
0.547406 0.476694 0.066155
0.616795 0.475898 0.064698
0.685462 0.474874 0.063082
0.753070 0.473531 0.061423
0.819516 0.471787 0.059757
0.884542 0.469591 0.058081
0.948354 0.467087 0.056382
1.006262 0.466208 0.107340
-0.028725 0.544845 0.134895
0.030246 0.545279 0.126911
0.066251 0.547534 0.066251
0.177674 0.547376 0.066078
0.257942 0.547163 0.065817
0.332436 0.546869 0.065468
0.404582 0.546487 0.065045
0.475511 0.546079 0.064567
0.545639 0.545639 0.064058
0.615077 0.544995 0.062874
0.683847 0.544092 0.061669
0.751609 0.542773 0.060339
0.818228 0.540990 0.058932
0.883352 0.538641 0.057471
0.947320 0.535935 0.055953
1.006261 0.534071 0.107338
-0.028754 0.613115 0.134917
0.031151 0.613482 0.126965
0.063163 0.615399 0.063163
0.176333 0.615310 0.063070
0.256631 0.615149 0.062929
0.331040 0.614941 0.062738
0.403105 0.614699 0.062507
0.474012 0.614413 0.062242
0.544107 0.614088 0.061960
0.613746 0.613746 0.061669
0.682582 0.612914 0.060627
0.750417 0.611614 0.059541
0.817091 0.609761 0.058356
0.882329 0.607254 0.057059
0.946313 0.604318 0.055674
1.006261 0.601737 0.107336
-0.028784 0.680990 0.134852
0.032191 0.681300 0.126997
0.060909 0.682958 0.060909
0.175300 0.682905 0.060862
0.255555 0.682812 0.060789
0.329859 0.682674 0.060695
0.401831 0.682518 0.060578
0.472606 0.682303 0.060445
0.542636 0.682059 0.060306
0.612208 0.681790 0.060166
0.681524 0.681524 0.060034
0.749438 0.680194 0.059049
0.816125 0.678267 0.057998
0.881391 0.675586 0.056852
0.945458 0.672427 0.055580
1.006261 0.669348 0.107331
-0.028822 0.748135 0.134669
0.033280 0.748445 0.126955
0.059224 0.749851 0.059224
0.174397 0.749798 0.059206
0.254532 0.749716 0.059176
0.328700 0.749677 0.059134
0.400483 0.749532 0.059091
0.471113 0.749396 0.059038
0.541005 0.749196 0.058990
0.610465 0.748970 0.058944
0.679672 0.748799 0.058912
0.748576 0.748576 0.058894
0.815324 0.746546 0.057904
0.880612 0.743708 0.056831
0.944743 0.740214 0.055643
1.006261 0.736834 0.107327
-0.028863 0.814310 0.134350
0.034357 0.814544 0.126817
0.057918 0.815803 0.057918
0.173504 0.815763 0.057912
0.253440 0.815699 0.057910
0.327385 0.815621 0.057903
0.398927 0.815560 0.057899
0.469366 0.815444 0.057901
0.539042 0.815306 0.057905
0.608340 0.815165 0.057924
0.677334 0.814992 0.057950
0.746098 0.814843 0.058000
0.814649 0.814649 0.058068
0.879997 0.811606 0.057022
0.944122 0.807912 0.055873
1.006261 0.804246 0.107149
-0.028909 0.879171 0.133874
0.035366 0.879334 0.126541
0.056844 0.880453 0.056844
0.172543 0.880421 0.056849
0.252190 0.880369 0.056861
0.325811 0.880346 0.056877
0.397092 0.880255 0.056898
0.467245 0.880167 0.056928
0.536650 0.880094 0.056969
0.605648 0.879995 0.057025
0.674403 0.879857 0.057094
0.742900 0.879756 0.057182
0.811226 0.879620 0.057291
0.879455 0.879455 0.057423
0.943584 0.875504 0.056276
1.006260 0.871559 0.106901
-0.028958 0.942906 0.133290
0.036261 0.943028 0.126169
0.055897 0.944036 0.055897
0.171525 0.944009 0.055904
0.250825 0.944007 0.055925
0.324132 0.943950 0.055952
0.395035 0.943876 0.055993
0.464853 0.943838 0.056042
0.533936 0.943770 0.056103
0.602639 0.943647 0.056178
0.671065 0.943591 0.056271
0.739239 0.943482 0.056385
0.807294 0.943373 0.056513
0.875214 0.943248 0.056674
0.943117 0.943117 0.056852
1.006260 0.939041 0.106834
-0.029012 1.006240 0.132751
0.050275 1.006243 0.128758
0.106839 1.006261 0.106839
0.187426 1.006260 0.106839
0.259525 1.006260 0.106840
0.329264 1.006260 0.106839
0.397930 1.006260 0.106838
0.466158 1.006260 0.106837
0.534014 1.006260 0.106837
0.601705 1.006260 0.106836
0.669321 1.006260 0.106835
0.736848 1.006260 0.106833
0.804236 1.006260 0.106832
0.871557 1.006260 0.106833
0.939040 1.006260 0.106832
1.006260 1.006260 0.106830
-0.028639 -0.028639 0.202051
0.063881 -0.028639 0.202051
0.133845 -0.028640 0.202051
0.202051 -0.028642 0.202051
0.270615 -0.028644 0.202576
0.339174 -0.028647 0.202951
0.407716 -0.028653 0.203233
0.476322 -0.028658 0.203465
0.544847 -0.028665 0.203631
0.613116 -0.028673 0.203659
0.680991 -0.028683 0.203569
0.748137 -0.028695 0.203301
0.814312 -0.028707 0.202836
0.879174 -0.028721 0.202128
0.942909 -0.028735 0.201289
1.006242 -0.028751 0.200483
-0.028640 0.063880 0.202051
0.056012 0.056012 0.212499
0.137196 0.051387 0.211909
0.208719 0.045056 0.208719
0.277341 0.038528 0.205558
0.345089 0.034486 0.203387
0.412771 0.031953 0.202064
0.480615 0.030308 0.201272
0.548487 0.029266 0.200753
0.616269 0.028626 0.200333
0.683752 0.028261 0.199924
0.750592 0.028065 0.199449
0.816445 0.027968 0.198819
0.881014 0.027923 0.198037
0.944555 0.027881 0.197117
1.006245 0.050382 0.198300
-0.028642 0.133845 0.202051
0.044312 0.133877 0.208274
0.127019 0.127019 0.211047
0.209490 0.124385 0.209490
0.282814 0.117600 0.204587
0.354881 0.108325 0.199634
0.424950 0.099048 0.194603
0.493577 0.090716 0.190140
0.561293 0.083603 0.186463
0.628485 0.077654 0.183490
0.695174 0.072672 0.181060
0.761141 0.068473 0.178976
0.826256 0.064894 0.177115
0.890115 0.061779 0.175373
0.952957 0.059000 0.173684
1.006262 0.107340 0.187670
-0.028647 0.202050 0.202050
0.036418 0.203232 0.203232
0.117058 0.205878 0.205878
0.202050 0.202050 0.202050
0.280069 0.197410 0.197410
0.353923 0.189414 0.189414
0.426017 0.180903 0.180903
0.498474 0.170496 0.170496
0.569712 0.159432 0.159432
0.639301 0.148715 0.148715
0.707427 0.138764 0.138764
0.774148 0.129720 0.129720
0.839414 0.121548 0.121548
0.903181 0.114179 0.114179
0.965769 0.107441 0.107441
1.006293 0.164927 0.164927
-0.028655 0.270614 0.202575
0.031620 0.271657 0.201091
0.097856 0.275804 0.195154
0.181533 0.278061 0.181533
0.276383 0.276383 0.178941
0.350279 0.269027 0.179347
0.423505 0.262835 0.169941
0.495529 0.256810 0.160415
0.566284 0.251049 0.151057
0.635800 0.245624 0.142067
0.704147 0.240601 0.133598
0.771256 0.235982 0.125743
0.836904 0.231708 0.118499
0.901094 0.227727 0.111840
0.964008 0.224006 0.105644
1.006293 0.246252 0.164927
-0.028668 0.339173 0.202950
0.029773 0.339984 0.200144
0.085065 0.343706 0.187381
0.163863 0.348253 0.163863
0.261159 0.346840 0.161042
0.344849 0.344849 0.157320
0.418227 0.338872 0.155538
0.490459 0.334498 0.149095
0.561489 0.330462 0.141738
0.631368 0.326637 0.134565
0.700251 0.323026 0.127644
0.767751 0.319507 0.121051
0.833906 0.316071 0.114829
0.898485 0.312648 0.108969
0.961761 0.309226 0.103409
1.006293 0.320185 0.164926
-0.028682 0.407715 0.203230
0.029351 0.408354 0.199790
0.076493 0.411436 0.182638
0.147778 0.416205 0.147778
0.249573 0.415161 0.145854
0.333750 0.413743 0.143293
0.411979 0.411979 0.140211
0.484803 0.408051 0.136879
0.556328 0.404951 0.132649
0.626681 0.401986 0.127070
