luts/ColorsHigh.cube
LUT_3D_SIZE 16
-0.028638 -0.028638 -0.028638
0.063018 -0.028638 -0.028638
0.133290 -0.028639 -0.028639
0.202051 -0.028641 -0.028641
0.270615 -0.028643 -0.028643
0.339174 -0.028646 -0.028646
0.407716 -0.028652 -0.028652
0.476322 -0.028656 -0.028656
0.544847 -0.028664 -0.028664
0.613116 -0.028672 -0.028672
0.680991 -0.028682 -0.028682
0.748137 -0.028694 -0.028694
0.814312 -0.028706 -0.028706
0.879174 -0.028720 -0.028720
0.942909 -0.028734 -0.028734
1.006242 -0.028750 -0.028750
-0.028639 0.063018 -0.028639
0.063018 0.063018 -0.028639
0.133290 0.063582 -0.028640
0.202051 0.063880 -0.028642
0.270615 0.064065 -0.028644
0.339174 0.064197 -0.028647
0.407716 0.064300 -0.028652
0.476322 0.064381 -0.028657
0.544847 0.064436 -0.028665
0.613116 0.064447 -0.028673
0.680991 0.064413 -0.028683
0.748137 0.064314 -0.028694
0.814312 0.064142 -0.028707
0.879174 0.063883 -0.028721
0.942909 0.063571 -0.028734
1.006242 0.063280 -0.028751
-0.028642 0.133290 -0.028642
0.063581 0.133290 -0.028642
0.133289 0.133289 -0.028642
0.202051 0.133845 -0.028644
0.270615 0.134197 -0.028646
0.339174 0.134446 -0.028650
0.407716 0.134638 -0.028654
0.476322 0.134793 -0.028659
0.544847 0.134901 -0.028668
0.613116 0.134926 -0.028675
0.680991 0.134863 -0.028685
0.748137 0.134686 -0.028696
0.814312 0.134369 -0.028709
0.879174 0.133895 -0.028722
0.942909 0.133315 -0.028737
1.006242 0.132780 -0.028754
-0.028646 0.202050 -0.028646
0.063878 0.202050 -0.028646
0.133845 0.202050 -0.028647
0.202050 0.202050 -0.028649
0.270614 0.202576 -0.028652
0.339174 0.202951 -0.028654
0.407715 0.203232 -0.028659
0.476322 0.203465 -0.028665
0.544847 0.203631 -0.028672
0.613116 0.203659 -0.028681
0.680991 0.203569 -0.028691
0.748137 0.203300 -0.028702
0.814312 0.202835 -0.028714
0.879174 0.202128 -0.028728
0.942909 0.201288 -0.028742
1.006242 0.200482 -0.028759
-0.028654 0.270614 -0.028654
0.064061 0.270614 -0.028654
0.134196 0.270614 -0.028655
0.202575 0.270614 -0.028656
0.270614 0.270614 -0.028659
0.339173 0.271103 -0.028663
0.407715 0.271483 -0.028667
0.476322 0.271795 -0.028673
0.544847 0.272008 -0.028681
0.613116 0.272067 -0.028688
0.680991 0.271949 -0.028699
0.748137 0.271594 -0.028710
0.814312 0.270956 -0.028722
0.879174 0.270037 -0.028735
0.942909 0.268893 -0.028750
1.006242 0.267839 -0.028766
-0.028667 0.339173 -0.028667
0.064190 0.339173 -0.028667
0.134444 0.339173 -0.028668
0.202950 0.339173 -0.028669
0.271103 0.339173 -0.028670
0.339173 0.339173 -0.028674
0.407715 0.339625 -0.028679
0.476322 0.340016 -0.028685
0.544846 0.340289 -0.028693
0.613116 0.340344 -0.028701
0.680991 0.340192 -0.028710
0.748137 0.339752 -0.028721
0.814312 0.339000 -0.028733
0.879174 0.337812 -0.028746
0.942908 0.336394 -0.028760
1.006242 0.335079 -0.028776
-0.028682 0.407715 -0.028682
0.064291 0.407715 -0.028681
0.134635 0.407715 -0.028682
0.203230 0.407715 -0.028684
0.271482 0.407714 -0.028686
0.339625 0.407714 -0.028690
0.407714 0.407714 -0.028695
0.476321 0.408178 -0.028700
0.544846 0.408494 -0.028707
0.613116 0.408572 -0.028716
0.680990 0.408386 -0.028726
0.748137 0.407866 -0.028736
0.814312 0.406932 -0.028749
0.879173 0.405545 -0.028761
0.942908 0.403824 -0.028775
1.006241 0.402238 -0.028791
-0.028701 0.476321 -0.028701
0.064365 0.476321 -0.028702
0.134788 0.476321 -0.028703
0.203462 0.476321 -0.028703
0.271793 0.476321 -0.028706
0.340015 0.476321 -0.028709
0.408177 0.476321 -0.028714
0.476321 0.476321 -0.028720
0.544845 0.476699 -0.028727
0.613115 0.476798 -0.028735
0.680990 0.476582 -0.028745
0.748136 0.475965 -0.028757
0.814312 0.474885 -0.028768
0.879173 0.473247 -0.028780
0.942908 0.471263 -0.028794
1.006241 0.469422 -0.028810
-0.028726 0.544845 -0.028726
0.064416 0.544845 -0.028725
0.134895 0.544845 -0.028726
0.203626 0.544845 -0.028728
0.272005 0.544845 -0.028729
0.340288 0.544845 -0.028733
0.408493 0.544845 -0.028737
0.476699 0.544845 -0.028743
0.544845 0.544845 -0.028750
0.613115 0.544946 -0.028759
0.680990 0.544705 -0.028768
0.748136 0.544020 -0.028778
0.814311 0.542748 -0.028790
0.879173 0.540900 -0.028803
0.942908 0.538615 -0.028818
1.006241 0.536513 -0.028832
-0.028754 0.613115 -0.028754
0.064422 0.613115 -0.028754
0.134917 0.613115 -0.028754
0.203652 0.613115 -0.028756
0.272063 0.613115 -0.028758
0.340342 0.613115 -0.028760
0.408571 0.613115 -0.028766
0.476797 0.613115 -0.028771
0.544946 0.613115 -0.028778
0.613115 0.613115 -0.028785
0.680989 0.612847 -0.028795
0.748135 0.612051 -0.028807
0.814311 0.610650 -0.028817
0.879172 0.608566 -0.028831
0.942908 0.605967 -0.028844
1.006241 0.603620 -0.028860
-0.028786 0.680990 -0.028786
0.064378 0.680990 -0.028784
0.134852 0.680990 -0.028785
0.203560 0.680989 -0.028787
0.271944 0.680989 -0.028789
0.340189 0.680989 -0.028793
0.408383 0.680989 -0.028797
0.476581 0.680989 -0.028803
0.544704 0.680989 -0.028810
0.612846 0.680989 -0.028818
0.680989 0.680989 -0.028828
0.748135 0.680114 -0.028839
0.814311 0.678596 -0.028850
0.879172 0.676282 -0.028863
0.942907 0.673403 -0.028876
1.006241 0.670780 -0.028891
-0.028822 0.748135 -0.028822
0.064272 0.748135 -0.028822
0.134669 0.748135 -0.028823
0.203303 0.748135 -0.028824
0.271589 0.748135 -0.028827
0.339748 0.748135 -0.028831
0.407863 0.748135 -0.028836
0.475963 0.748135 -0.028841
0.544018 0.748135 -0.028847
0.612050 0.748134 -0.028856
0.680114 0.748134 -0.028866
0.748134 0.748134 -0.028876
0.814310 0.746441 -0.028888
0.879172 0.743878 -0.028899
0.942907 0.740738 -0.028913
1.006240 0.737890 -0.028927
-0.028864 0.814310 -0.028864
0.064088 0.814310 -0.028864
0.134349 0.814310 -0.028864
0.202822 0.814310 -0.028866
0.270959 0.814310 -0.028868
0.338996 0.814310 -0.028872
0.406927 0.814310 -0.028876
0.474882 0.814310 -0.028881
0.542746 0.814310 -0.028889
0.610623 0.814310 -0.028897
0.678595 0.814310 -0.028906
0.746441 0.814310 -0.028917
0.814310 0.814310 -0.028931
0.879171 0.811525 -0.028942
0.942906 0.808106 -0.028954
1.006240 0.804986 -0.028967
-0.028909 0.879171 -0.028909
0.063823 0.879171 -0.028909
0.133874 0.879171 -0.028910
0.202120 0.879171 -0.028911
0.270028 0.879171 -0.028914
0.337807 0.879171 -0.028917
0.405539 0.879171 -0.028921
0.473243 0.879171 -0.028927
0.540897 0.879171 -0.028933
0.608564 0.879171 -0.028942
0.676281 0.879171 -0.028951
0.743876 0.879171 -0.028962
0.811525 0.879171 -0.028974
0.879171 0.879171 -0.028987
0.942906 0.875436 -0.029000
1.006240 0.872030 -0.029013
-0.028957 0.942906 -0.028957
0.063499 0.942906 -0.028957
0.133290 0.942906 -0.028958
0.201269 0.942906 -0.028959
0.268883 0.942906 -0.028963
0.336393 0.942906 -0.028965
0.403816 0.942906 -0.028970
0.471259 0.942906 -0.028976
0.538611 0.942906 -0.028982
0.605965 0.942906 -0.028990
0.673401 0.942906 -0.029000
0.740736 0.942906 -0.029011
0.808105 0.942906 -0.029022
0.875436 0.942906 -0.029037
0.942905 0.942905 -0.029051
1.006240 0.939213 -0.029065
-0.029012 1.006240 -0.029012
0.063196 1.006240 -0.029012
0.132751 1.006240 -0.029013
0.200468 1.006240 -0.029012
0.267822 1.006240 -0.029015
0.335072 1.006240 -0.029018
0.402229 1.006240 -0.029022
0.469417 1.006240 -0.029028
0.536508 1.006240 -0.029035
0.603617 1.006240 -0.029044
0.670778 1.006240 -0.029052
0.737887 1.006240 -0.029063
0.804985 1.006240 -0.029075
0.872029 1.006239 -0.029089
0.939212 1.006239 -0.029104
1.006239 1.006239 -0.029120
-0.028638 -0.028638 0.063018
0.063018 -0.028638 0.063018
0.133290 -0.028639 0.063582
0.202051 -0.028641 0.063880
0.270615 -0.028643 0.064066
0.339174 -0.028646 0.064198
0.407716 -0.028652 0.064300
0.476322 -0.028657 0.064381
0.544847 -0.028664 0.064436
0.613116 -0.028672 0.064447
0.680991 -0.028682 0.064413
0.748137 -0.028694 0.064314
0.814312 -0.028706 0.064142
0.879174 -0.028720 0.063883
0.942909 -0.028734 0.063571
1.006242 -0.028750 0.063281
-0.028639 0.063018 0.063018
0.063018 0.063018 0.063018
0.147792 0.048329 0.048329
0.214757 0.037228 0.037228
0.280303 0.031595 0.031595
0.346598 0.029062 0.029062
0.413602 0.027839 0.027839
0.481113 0.027221 0.027221
0.548818 0.026944 0.026944
0.616475 0.026873 0.026873
0.683863 0.026922 0.026922
0.750625 0.027035 0.027035
0.816507 0.027166 0.027166
0.881080 0.027296 0.027296
0.944608 0.027391 0.027391
1.006245 0.050382 0.050382
-0.028642 0.133290 0.063581
0.037554 0.135971 0.037554
0.133948 0.133948 0.035729
0.207016 0.131712 0.032547
0.276319 0.129863 0.029807
0.344487 0.128667 0.028351
0.412421 0.127934 0.027585
0.480388 0.127499 0.027171
0.548338 0.127210 0.026989
0.616149 0.126981 0.026965
0.683713 0.126764 0.027036
0.750534 0.126488 0.027155
0.816400 0.126125 0.027290
0.880978 0.125644 0.027412
0.944565 0.125083 0.027494
1.006245 0.128786 0.050381
-0.028646 0.202050 0.063878
0.030532 0.203829 0.030532
0.129197 0.203312 0.030231
0.202518 0.202518 0.029764
0.272967 0.201920 0.028410
0.342195 0.201351 0.027710
0.410852 0.200885 0.027375
0.479368 0.200571 0.027191
0.547671 0.200314 0.027134
0.615688 0.200051 0.027171
0.683376 0.199745 0.027268
0.750276 0.199322 0.027402
0.816224 0.198748 0.027543
0.880868 0.197975 0.027650
0.944487 0.197080 0.027728
1.006245 0.198300 0.050382
-0.028654 0.270614 0.064061
0.028022 0.271867 0.028022
0.127547 0.271690 0.027977
0.200738 0.271361 0.027907
0.270961 0.270961 0.027847
0.340491 0.270843 0.027510
0.409512 0.270724 0.027432
0.478341 0.270601 0.027409
0.546884 0.270461 0.027450
0.615120 0.270230 0.027537
0.682903 0.269895 0.027665
0.749930 0.269377 0.027801
0.815958 0.268619 0.027933
0.880654 0.267599 0.028034
0.944306 0.266379 0.028089
1.006245 0.266416 0.050377
-0.028667 0.339173 0.064190
0.027537 0.340067 0.027537
0.126937 0.339997 0.027553
0.199972 0.339855 0.027589
0.270187 0.339638 0.027657
0.339412 0.339412 0.027774
0.408560 0.339531 0.027818
0.477520 0.339591 0.027890
0.546210 0.339586 0.027984
0.614561 0.339420 0.028110
0.682479 0.339081 0.028240
0.749592 0.338484 0.028374
0.815648 0.337578 0.028492
0.880415 0.336305 0.028567
0.944098 0.334798 0.028595
1.006245 0.334072 0.050375
-0.028682 0.407715 0.064291
0.027925 0.408406 0.027925
0.126759 0.408366 0.027958
0.199676 0.408320 0.028026
0.269854 0.408193 0.028139
0.339117 0.408058 0.028302
0.407919 0.407919 0.028526
0.476913 0.408149 0.028631
0.545673 0.408243 0.028758
0.614079 0.408149 0.028882
0.682062 0.407795 0.029014
0.749237 0.407110 0.029129
0.815394 0.406073 0.029218
0.880173 0.404584 0.029269
0.943874 0.402806 0.029249
1.006245 0.401513 0.050374
-0.028701 0.476321 0.064365
0.028675 0.476889 0.028675
0.126761 0.476864 0.028714
0.199600 0.476833 0.028789
0.269755 0.476765 0.028914
0.339037 0.476678 0.029092
0.407863 0.476596 0.029327
0.476483 0.476483 0.029624
0.545273 0.476688 0.029741
0.613689 0.476624 0.029866
0.681722 0.476288 0.029975
0.748896 0.475549 0.030061
0.815132 0.474362 0.030118
0.879980 0.472641 0.030122
0.943678 0.470572 0.030061
1.006245 0.468848 0.050368
-0.028725 0.544845 0.064416
0.029645 0.545288 0.029645
0.126842 0.545272 0.029685
0.199601 0.545264 0.029764
0.269722 0.545212 0.029887
0.339012 0.545170 0.030062
0.407836 0.545102 0.030296
0.476502 0.545036 0.030583
0.544989 0.544989 0.030934
0.613430 0.544954 0.031026
0.681441 0.544597 0.031112
0.748655 0.543800 0.031164
0.814905 0.542454 0.031173
0.879813 0.540521 0.031127
0.943545 0.538160 0.031017
1.006245 0.536074 0.050363
-0.028754 0.613115 0.064422
0.030749 0.613487 0.030749
0.126912 0.613479 0.030788
0.199565 0.613464 0.030862
0.269637 0.613440 0.030981
0.338882 0.613388 0.031146
0.407694 0.613348 0.031368
0.476345 0.613303 0.031644
0.544811 0.613267 0.031977
0.613215 0.613215 0.032373
0.681247 0.612859 0.032409
0.748541 0.611961 0.032419
0.814708 0.610481 0.032378
0.879635 0.608345 0.032272
0.943371 0.605683 0.032103
1.006244 0.603296 0.050356
-0.028786 0.680990 0.064378
0.031923 0.681303 0.031923
0.126960 0.681297 0.031954
0.199464 0.681286 0.032025
0.269442 0.681269 0.032136
0.338609 0.681264 0.032293
0.407372 0.681235 0.032499
0.475962 0.681200 0.032756
0.544387 0.681180 0.033068
0.612740 0.681099 0.033434
0.681057 0.681057 0.033856
0.748326 0.680110 0.033808
0.814601 0.678568 0.033713
0.879473 0.676126 0.033556
0.943223 0.673202 0.033323
1.006244 0.670530 0.050342
-0.028822 0.748135 0.064272
0.033097 0.748448 0.033097
0.126933 0.748442 0.033128
0.199233 0.748430 0.033196
0.269068 0.748412 0.033295
0.338114 0.748388 0.033441
0.406748 0.748356 0.033633
0.475239 0.748318 0.033870
0.543558 0.748276 0.034155
0.611817 0.748279 0.034496
0.680047 0.748231 0.034885
0.748218 0.748218 0.035332
0.814461 0.746460 0.035171
0.879364 0.743841 0.034946
0.943107 0.740650 0.034643
1.006244 0.737701 0.050338
-0.028864 0.814310 0.064088
0.034233 0.814546 0.034233
0.126800 0.814543 0.034259
0.198817 0.814537 0.034318
0.268449 0.814528 0.034412
0.337272 0.814515 0.034543
0.405761 0.814499 0.034721
0.474065 0.814480 0.034940
0.542210 0.814458 0.035203
0.610288 0.814445 0.035514
0.678415 0.814419 0.035874
0.746403 0.814393 0.036283
0.814366 0.814366 0.036736
0.879272 0.811532 0.036444
0.943039 0.808051 0.036070
1.006244 0.804837 0.050312
-0.028909 0.879171 0.063823
0.035279 0.879335 0.035279
0.126531 0.879333 0.035299
0.198217 0.879329 0.035356
0.267538 0.879322 0.035440
0.336116 0.879312 0.035563
0.404305 0.879300 0.035721
0.472384 0.879308 0.035922
0.540288 0.879291 0.036158
0.608132 0.879272 0.036445
0.675965 0.879252 0.036775
0.743734 0.879230 0.037152
0.811507 0.879209 0.037567
0.879187 0.879187 0.038030
0.942982 0.875433 0.037582
1.006243 0.871926 0.050278
-0.028957 0.942906 0.063499
0.036193 0.943029 0.036193
0.126164 0.943027 0.036222
0.197441 0.943024 0.036269
0.266438 0.943018 0.036347
0.334686 0.943010 0.036462
0.402623 0.943025 0.036604
0.470360 0.943029 0.036786
0.537968 0.943015 0.037002
0.605514 0.942999 0.037269
0.673087 0.942983 0.037565
0.740506 0.942965 0.037911
0.807983 0.942947 0.038292
0.875390 0.942929 0.038716
0.942911 0.942911 0.039182
1.006243 0.939163 0.050259
-0.029012 1.006240 0.063196
0.050275 1.006243 0.050275
0.128758 1.006243 0.050275
0.198291 1.006243 0.050274
0.266404 1.006243 0.050272
0.334065 1.006243 0.050273
0.401504 1.006243 0.050270
0.468843 1.006243 0.050272
0.536070 1.006243 0.050267
0.603293 1.006243 0.050266
0.670528 1.006243 0.050262
0.737699 1.006243 0.050260
0.804836 1.006243 0.050260
0.871926 1.006243 0.050252
0.939162 1.006243 0.050247
1.006243 1.006243 0.050242
-0.028638 -0.028638 0.133290
0.063582 -0.028638 0.133290
0.133290 -0.028639 0.133290
0.202051 -0.028641 0.133845
0.270615 -0.028644 0.134198
0.339174 -0.028647 0.134447
0.407716 -0.028652 0.134639
0.476322 -0.028657 0.134793
0.544847 -0.028664 0.134902
0.613116 -0.028672 0.134926
0.680991 -0.028683 0.134863
0.748137 -0.028694 0.134686
0.814312 -0.028706 0.134369
0.879174 -0.028720 0.133896
0.942909 -0.028734 0.133315
1.006242 -0.028751 0.132780
-0.028639 0.063582 0.133290
0.056600 0.056600 0.153320
0.144898 0.045415 0.144898
0.213457 0.036421 0.136088
0.279742 0.031334 0.131595
0.346334 0.028966 0.129403
0.413460 0.027806 0.128283
0.481035 0.027211 0.127666
0.548765 0.026946 0.127297
0.616443 0.026883 0.127025
0.683858 0.026934 0.126788
0.750683 0.027047 0.126494
0.816494 0.027176 0.126126
0.881069 0.027302 0.125645
0.944599 0.027394 0.125076
1.006245 0.050382 0.128786
-0.028642 0.133290 0.133290
0.036854 0.135186 0.135186
0.133289 0.133289 0.133289
0.223764 0.119921 0.119921
0.302231 0.099864 0.099864
0.370257 0.086647 0.086647
0.435727 0.077455 0.077455
0.500942 0.070886 0.070886
0.566361 0.066072 0.066072
0.631991 0.062433 0.062433
0.697692 0.059588 0.059588
0.763012 0.057276 0.057276
0.827663 0.055323 0.055323
0.891212 0.053595 0.053595
0.953850 0.051997 0.051997
1.006262 0.107347 0.107347
-0.028646 0.202050 0.133845
0.030424 0.203649 0.129418
0.096744 0.209626 0.096744
0.204887 0.204887 0.091911
0.284884 0.198047 0.084261
0.357479 0.192225 0.077481
0.426880 0.187710 0.072100
0.494905 0.184267 0.067698
0.562194 0.181637 0.064143
0.629091 0.179576 0.061254
0.695600 0.177890 0.058859
0.761454 0.176416 0.056829
0.826491 0.175053 0.055051
0.890309 0.173663 0.053440
0.953157 0.172296 0.051912
1.006262 0.187655 0.107346
-0.028655 0.270614 0.134196
0.028006 0.271807 0.127602
0.076705 0.277419 0.076705
0.190380 0.275472 0.075091
0.272926 0.272926 0.072951
0.347466 0.269524 0.070090
0.418936 0.266681 0.067179
0.488802 0.264280 0.064451
0.557624 0.262269 0.062020
0.625636 0.260512 0.059876
0.692994 0.258925 0.057975
0.759500 0.257416 0.056271
0.824907 0.255870 0.054713
0.889080 0.254215 0.053242
0.952240 0.252497 0.051818
1.006262 0.259664 0.107346
-0.028667 0.339173 0.134445
0.027542 0.340041 0.126955
0.067417 0.344431 0.067417
0.183127 0.343562 0.066765
0.265297 0.342313 0.065842
0.340789 0.340789 0.064734
0.413011 0.339026 0.063338
0.483784 0.337461 0.061774
0.553468 0.336049 0.060140
0.622232 0.334632 0.058588
0.690243 0.333244 0.057116
0.757349 0.331744 0.055718
0.823196 0.330101 0.054373
0.887674 0.328240 0.053061
0.951084 0.326202 0.051738
1.006262 0.329349 0.107343
-0.028682 0.407715 0.134635
0.027936 0.408407 0.126766
0.062485 0.411871 0.062485
0.179343 0.411425 0.062202
0.261068 0.410724 0.061789
0.336389 0.409867 0.061274
0.408907 0.408907 0.060699
0.480001 0.407943 0.059726
0.550087 0.406953 0.058711
0.619317 0.405924 0.057570
0.687793 0.404722 0.056422
0.755221 0.403299 0.055273
0.821439 0.401600 0.054115
0.886218 0.399575 0.052931
0.949824 0.397285 0.051708
1.006262 0.398006 0.107342
-0.028702 0.476321 0.134788
0.028688 0.476881 0.126761
0.059530 0.479697 0.059530
0.177186 0.479443 0.059406
0.258597 0.479042 0.059221
0.333694 0.478537 0.058985
0.406162 0.477931 0.058715
0.477259 0.477259 0.058433
0.547529 0.476641 0.057665
0.617010 0.475842 0.056877
0.685717 0.474814 0.055964
0.753396 0.473473 0.054997
0.819806 0.471728 0.053977
0.884813 0.469527 0.052906
0.948622 0.467024 0.051765
1.006262 0.466208 0.107340
-0.028725 0.544845 0.134895
0.029661 0.545283 0.126840
0.057687 0.547634 0.057687
0.175875 0.547456 0.057635
0.257037 0.547252 0.057559
0.331924 0.546907 0.057462
0.404292 0.546510 0.057353
0.475380 0.546058 0.057240
0.545576 0.545576 0.057136
0.615146 0.544986 0.056451
0.683940 0.544091 0.055738
0.751787 0.542774 0.054912
0.818381 0.540965 0.053998
0.883563 0.538615 0.053003
0.947490 0.535898 0.051919
1.006261 0.534071 0.107338
-0.028754 0.613115 0.134917
0.030765 0.613484 0.126908
0.056492 0.615463 0.056492
0.174968 0.615374 0.056478
0.255909 0.615209 0.056457
0.330636 0.614987 0.056433
0.402877 0.614720 0.056408
0.473869 0.614417 0.056389
0.544037 0.614081 0.056383
0.613695 0.613695 0.056393
0.682601 0.612902 0.055726
0.750502 0.611609 0.055004
0.817189 0.609771 0.054180
0.882428 0.607252 0.053241
0.946433 0.604316 0.052198
1.006261 0.601737 0.107336
-0.028784 0.680990 0.134852
0.031933 0.681301 0.126957
0.055688 0.683003 0.055688
0.174237 0.682945 0.055691
0.254988 0.682845 0.055701
0.329539 0.682699 0.055714
0.401600 0.682532 0.055737
0.472476 0.682325 0.055770
0.542545 0.682049 0.055819
0.612182 0.681807 0.055889
0.681510 0.681510 0.055983
0.749427 0.680190 0.055276
0.816185 0.678268 0.054496
0.881477 0.675590 0.053612
0.945525 0.672433 0.052601
1.006261 0.669348 0.107331
-0.028822 0.748135 0.134669
0.033109 0.748446 0.126930
0.055109 0.749901 0.055109
0.173569 0.749846 0.055121
0.254088 0.749759 0.055146
0.328419 0.749716 0.055182
0.400291 0.749564 0.055228
0.471000 0.749421 0.055295
0.540929 0.749214 0.055375
0.610428 0.748983 0.055478
0.679649 0.748800 0.055602
0.748566 0.748566 0.055755
0.815345 0.746547 0.054975
0.880656 0.743715 0.054099
0.944767 0.740225 0.053111
1.006261 0.736834 0.107327
-0.028863 0.814310 0.134350
0.034240 0.814545 0.126802
0.054650 0.815835 0.054650
0.172846 0.815804 0.054668
0.253084 0.815737 0.054702
0.327148 0.815656 0.054749
0.398781 0.815591 0.054811
0.469267 0.815470 0.054885
0.538998 0.815327 0.054988
0.608298 0.815180 0.055105
0.677325 0.815001 0.055251
0.746129 0.814847 0.055421
0.814647 0.814647 0.055615
0.880015 0.811609 0.054728
0.944157 0.807919 0.053726
1.006261 0.804246 0.107149
-0.028909 0.879171 0.133874
0.035285 0.879335 0.126528
0.054232 0.880490 0.054232
0.172011 0.880456 0.054253
0.251904 0.880404 0.054286
0.325630 0.880378 0.054342
0.396986 0.880284 0.054406
0.467150 0.880193 0.054494
0.536593 0.880116 0.054597
0.605609 0.880013 0.054728
0.674376 0.879870 0.054879
0.742877 0.879766 0.055058
0.811220 0.879625 0.055266
0.879456 0.879456 0.055490
0.943599 0.875510 0.054467
1.006260 0.871559 0.106901
-0.028958 0.942906 0.133290
0.036210 0.943029 0.126161
0.053792 0.944069 0.053792
0.171102 0.944042 0.053816
0.250599 0.943999 0.053854
0.323964 0.943979 0.053903
0.394959 0.943903 0.053977
0.464783 0.943862 0.054063
0.533882 0.943792 0.054175
0.602580 0.943666 0.054304
0.671111 0.943606 0.054461
0.739254 0.943495 0.054635
0.807286 0.943382 0.054838
0.875212 0.943254 0.055062
0.943120 0.943120 0.055324
1.006260 0.939041 0.106834
-0.029012 1.006240 0.132751
0.050275 1.006243 0.128758
0.106839 1.006261 0.106839
0.187426 1.006260 0.106839
0.259525 1.006260 0.106840
0.329264 1.006260 0.106839
0.397930 1.006260 0.106838
0.466158 1.006260 0.106837
0.534014 1.006260 0.106837
0.601705 1.006260 0.106836
0.669321 1.006260 0.106835
0.736848 1.006260 0.106833
0.804236 1.006260 0.106832
0.871557 1.006260 0.106833
0.939040 1.006260 0.106832
1.006260 1.006260 0.106830
-0.028639 -0.028639 0.202051
0.063881 -0.028639 0.202051
0.133845 -0.028640 0.202051
0.202051 -0.028642 0.202051
0.270615 -0.028644 0.202576
0.339174 -0.028647 0.202951
0.407716 -0.028653 0.203233
0.476322 -0.028658 0.203465
0.544847 -0.028665 0.203631
0.613116 -0.028673 0.203659
0.680991 -0.028683 0.203569
0.748137 -0.028695 0.203301
0.814312 -0.028707 0.202836
0.879174 -0.028721 0.202128
0.942909 -0.028735 0.201289
1.006242 -0.028751 0.200483
-0.028640 0.063880 0.202051
0.046136 0.046136 0.230057
0.140697 0.040280 0.220211
0.211327 0.035089 0.211327
0.278740 0.030868 0.206263
0.345839 0.028789 0.203521
0.413193 0.027744 0.202038
0.480879 0.027198 0.201198
0.548657 0.026957 0.200670
0.616393 0.026898 0.200262
0.683810 0.026957 0.199868
0.750648 0.027070 0.199395
0.816488 0.027205 0.198792
0.881048 0.027336 0.198000
0.944582 0.027421 0.197088
1.006245 0.050382 0.198300
-0.028642 0.133845 0.202051
0.034588 0.134061 0.210483
0.123248 0.123248 0.227825
0.222449 0.112699 0.222449
0.299923 0.096793 0.210092
0.368557 0.085230 0.199420
0.434603 0.076725 0.191892
0.500216 0.070480 0.186707
0.565872 0.065839 0.183120
0.631664 0.062294 0.180476
0.697492 0.059505 0.178460
0.762854 0.057224 0.176790
0.827535 0.055291 0.175304
0.891114 0.053576 0.173835
0.953749 0.051988 0.172407
1.006262 0.107340 0.187670
-0.028647 0.202050 0.202050
0.030222 0.203312 0.203312
0.094953 0.207884 0.207884
0.202050 0.202050 0.202050
0.295958 0.189007 0.189007
0.379978 0.169327 0.169327
0.455273 0.150634 0.150634
0.524242 0.135908 0.135908
0.590461 0.124186 0.124186
0.655549 0.114741 0.114741
0.720025 0.107009 0.107009
0.783969 0.100569 0.100569
0.847182 0.095092 0.095092
0.909377 0.090329 0.090329
0.970791 0.086048 0.086048
1.006293 0.164927 0.164927
-0.028655 0.270614 0.202575
0.027975 0.271684 0.200966
0.076133 0.276720 0.191357
0.156882 0.283033 0.156882
0.276896 0.276896 0.150049
0.360887 0.265428 0.144521
0.437423 0.256321 0.133921
0.509524 0.248634 0.124653
0.578930 0.242200 0.116568
0.646654 0.236802 0.109545
0.713192 0.232258 0.103429
0.778692 0.228333 0.098082
0.843077 0.224844 0.093350
0.906156 0.221650 0.089091
0.968222 0.218701 0.085177
1.006293 0.246252 0.164927
-0.028668 0.339173 0.202950
0.027553 0.339995 0.200053
0.067190 0.344145 0.183502
0.130380 0.351457 0.130380
0.253153 0.348162 0.127233
0.344117 0.344117 0.123409
0.422305 0.337574 0.120143
0.496552 0.332336 0.114817
0.568143 0.327765 0.109368
0.637814 0.323628 0.104307
0.706071 0.319902 0.099636
0.772956 0.316472 0.095330
0.838447 0.313211 0.091359
0.902376 0.309949 0.087656
0.965188 0.306819 0.084131
1.006293 0.320185 0.164926
-0.028682 0.407715 0.203230
0.027960 0.408365 0.199706
0.062386 0.411732 0.179512
0.114953 0.418080 0.114953
0.239853 0.416233 0.113409
0.330239 0.413923 0.111433
0.411263 0.411263 0.109162
0.486490 0.407430 0.106402
0.559198 0.404104 0.103287
0.630098 0.400952 0.099632
