luts/ColorsMid.cube
LUT_3D_SIZE 16
-0.038231 -0.038231 -0.038231
0.058026 -0.038231 -0.038231
0.129599 -0.038233 -0.038233
0.198053 -0.038235 -0.038235
0.266385 -0.038236 -0.038236
0.334891 -0.038238 -0.038238
0.403606 -0.038242 -0.038242
0.472446 -0.038245 -0.038245
0.541281 -0.038250 -0.038250
0.609863 -0.038255 -0.038255
0.678153 -0.038264 -0.038264
0.745716 -0.038268 -0.038268
0.812421 -0.038276 -0.038276
0.877914 -0.038285 -0.038285
0.942473 -0.038302 -0.038302
1.006243 -0.038308 -0.038308
-0.038233 0.058026 -0.038233
0.058026 0.058026 -0.038233
0.129599 0.058164 -0.038234
0.198053 0.058547 -0.038235
0.266385 0.058922 -0.038237
0.334891 0.059246 -0.038238
0.403606 0.059525 -0.038243
0.472446 0.059749 -0.038245
0.541281 0.059925 -0.038250
0.609863 0.060031 -0.038256
0.678153 0.060077 -0.038261
0.745716 0.060040 -0.038269
0.812421 0.059924 -0.038277
0.877914 0.059718 -0.038285
0.942473 0.059446 -0.038296
1.006243 0.059166 -0.038309
-0.038235 0.129599 -0.038235
0.058163 0.129599 -0.038235
0.129599 0.129599 -0.038236
0.198053 0.130269 -0.038237
0.266385 0.130912 -0.038238
0.334891 0.131471 -0.038240
0.403606 0.131961 -0.038243
0.472446 0.132348 -0.038247
0.541281 0.132658 -0.038252
0.609863 0.132850 -0.038257
0.678153 0.132932 -0.038263
0.745716 0.132875 -0.038268
0.812421 0.132677 -0.038279
0.877914 0.132325 -0.038287
0.942473 0.131864 -0.038298
1.006243 0.131389 -0.038310
-0.038238 0.198053 -0.038238
0.058545 0.198053 -0.038238
0.130269 0.198053 -0.038238
0.198053 0.198053 -0.038240
0.266385 0.199002 -0.038242
0.334891 0.199830 -0.038243
0.403605 0.200550 -0.038247
0.472446 0.201120 -0.038249
0.541281 0.201586 -0.038255
0.609863 0.201853 -0.038261
0.678153 0.201973 -0.038269
0.745715 0.201895 -0.038274
0.812421 0.201618 -0.038284
0.877914 0.201109 -0.038292
0.942473 0.200415 -0.038307
1.006243 0.199718 -0.038313
-0.038243 0.266384 -0.038243
0.058917 0.266384 -0.038243
0.130911 0.266384 -0.038244
0.199002 0.266384 -0.038245
0.266384 0.266384 -0.038247
0.334891 0.267485 -0.038247
0.403605 0.268434 -0.038252
0.472446 0.269191 -0.038256
0.541281 0.269803 -0.038260
0.609863 0.270170 -0.038266
0.678153 0.270331 -0.038275
0.745715 0.270222 -0.038279
0.812421 0.269842 -0.038288
0.877914 0.269166 -0.038297
0.942473 0.268259 -0.038308
1.006243 0.267332 -0.038317
-0.038250 0.334891 -0.038250
0.059239 0.334891 -0.038250
0.131475 0.334890 -0.038250
0.199829 0.334890 -0.038250
0.267485 0.334890 -0.038254
0.334890 0.334890 -0.038256
0.403605 0.336097 -0.038260
0.472445 0.337035 -0.038262
0.541281 0.337791 -0.038267
0.609863 0.338254 -0.038273
0.678153 0.338473 -0.038280
0.745715 0.338333 -0.038286
0.812421 0.337860 -0.038295
0.877913 0.337006 -0.038305
0.942473 0.335872 -0.038313
1.006243 0.334713 -0.038325
-0.038261 0.403604 -0.038261
0.059516 0.403604 -0.038261
0.131956 0.403604 -0.038262
0.200548 0.403604 -0.038262
0.268433 0.403604 -0.038263
0.336097 0.403604 -0.038266
0.403604 0.403604 -0.038268
0.472445 0.404744 -0.038273
0.541280 0.405665 -0.038278
0.609863 0.406218 -0.038283
0.678152 0.406457 -0.038291
0.745715 0.406277 -0.038301
0.812421 0.405727 -0.038306
0.877913 0.404712 -0.038316
0.942473 0.403371 -0.038329
1.006243 0.401989 -0.038335
-0.038274 0.472445 -0.038274
0.059733 0.472445 -0.038274
0.132341 0.472445 -0.038274
0.201116 0.472445 -0.038275
0.269189 0.472445 -0.038276
0.337035 0.472445 -0.038278
0.404744 0.472445 -0.038281
0.472445 0.472445 -0.038284
0.541280 0.473518 -0.038292
0.609862 0.474170 -0.038296
0.678152 0.474445 -0.038304
0.745715 0.474259 -0.038313
0.812420 0.473586 -0.038320
0.877913 0.472402 -0.038328
0.942472 0.470827 -0.038343
1.006243 0.469212 -0.038349
-0.038288 0.541280 -0.038288
0.059903 0.541280 -0.038290
0.132651 0.541280 -0.038291
0.201581 0.541280 -0.038292
0.269801 0.541280 -0.038293
0.337789 0.541280 -0.038295
0.405664 0.541280 -0.038298
0.473517 0.541279 -0.038303
0.541279 0.541279 -0.038308
0.609862 0.541997 -0.038313
0.678152 0.542336 -0.038320
0.745714 0.542108 -0.038326
0.812420 0.541352 -0.038333
0.877913 0.540015 -0.038344
0.942472 0.538189 -0.038358
1.006242 0.536366 -0.038362
-0.038309 0.609862 -0.038309
0.060004 0.609862 -0.038309
0.132839 0.609862 -0.038310
0.201856 0.609862 -0.038310
0.270172 0.609862 -0.038312
0.338252 0.609862 -0.038315
0.406216 0.609862 -0.038316
0.474169 0.609862 -0.038321
0.541997 0.609862 -0.038325
0.609862 0.609862 -0.038330
0.678151 0.610219 -0.038339
0.745714 0.609993 -0.038345
0.812420 0.609137 -0.038352
0.877912 0.607602 -0.038362
0.942472 0.605577 -0.038372
1.006242 0.603518 -0.038382
-0.038330 0.678152 -0.038330
0.060040 0.678152 -0.038330
0.132921 0.678152 -0.038330
0.201969 0.678152 -0.038332
0.270327 0.678152 -0.038334
0.338470 0.678151 -0.038340
0.406454 0.678151 -0.038339
0.474444 0.678151 -0.038344
0.542335 0.678151 -0.038348
0.610219 0.678151 -0.038352
0.678151 0.678151 -0.038359
0.745713 0.677882 -0.038370
0.812420 0.676935 -0.038375
0.877912 0.675241 -0.038383
0.942472 0.673016 -0.038392
1.006242 0.670714 -0.038402
-0.038358 0.745713 -0.038358
0.059996 0.745713 -0.038354
0.132861 0.745713 -0.038355
0.201884 0.745713 -0.038359
0.270216 0.745713 -0.038358
0.338330 0.745713 -0.038361
0.406295 0.745713 -0.038363
0.474257 0.745713 -0.038368
0.542107 0.745713 -0.038373
0.609992 0.745713 -0.038378
0.677882 0.745713 -0.038384
0.745712 0.745712 -0.038391
0.812419 0.744672 -0.038399
0.877912 0.742845 -0.038409
0.942471 0.740333 -0.038420
1.006242 0.737821 -0.038424
-0.038383 0.812419 -0.038383
0.059868 0.812419 -0.038383
0.132658 0.812419 -0.038384
0.201606 0.812419 -0.038385
0.269835 0.812419 -0.038389
0.337855 0.812419 -0.038390
0.405722 0.812419 -0.038391
0.473583 0.812419 -0.038396
0.541350 0.812419 -0.038400
0.609136 0.812419 -0.038407
0.676934 0.812419 -0.038411
0.744671 0.812419 -0.038419
0.812419 0.812419 -0.038427
0.877911 0.810369 -0.038434
0.942471 0.807683 -0.038442
1.006241 0.804930 -0.038453
-0.038413 0.877912 -0.038413
0.059650 0.877912 -0.038413
0.132307 0.877912 -0.038414
0.201094 0.877912 -0.038414
0.269157 0.877912 -0.038416
0.337001 0.877912 -0.038419
0.404706 0.877912 -0.038421
0.472399 0.877911 -0.038427
0.540012 0.877911 -0.038429
0.607600 0.877911 -0.038434
0.675240 0.877911 -0.038441
0.742843 0.877911 -0.038449
0.810369 0.877911 -0.038459
0.877911 0.877911 -0.038468
0.942470 0.874985 -0.038480
1.006241 0.871993 -0.038485
-0.038451 0.942471 -0.038451
0.059362 0.942471 -0.038452
0.131839 0.942471 -0.038448
0.200396 0.942471 -0.038448
0.268258 0.942471 -0.038449
0.335865 0.942470 -0.038458
0.403364 0.942470 -0.038456
0.470823 0.942470 -0.038459
0.538185 0.942470 -0.038463
0.605575 0.942470 -0.038467
0.673014 0.942470 -0.038480
0.740331 0.942470 -0.038486
0.807682 0.942470 -0.038490
0.874985 0.942470 -0.038501
0.942470 0.942470 -0.038515
1.006241 0.939195 -0.038519
-0.038483 1.006241 -0.038483
0.059071 1.006241 -0.038483
0.131357 1.006241 -0.038483
0.199703 1.006241 -0.038484
0.267325 1.006241 -0.038486
0.334705 1.006241 -0.038488
0.401980 1.006241 -0.038490
0.469207 1.006241 -0.038496
0.536361 1.006241 -0.038500
0.603516 1.006241 -0.038504
0.670712 1.006241 -0.038509
0.737818 1.006241 -0.038518
0.804929 1.006241 -0.038527
0.871993 1.006241 -0.038536
0.939195 1.006240 -0.038546
1.006240 1.006240 -0.038557
-0.038231 -0.038231 0.058026
0.058026 -0.038231 0.058026
0.129599 -0.038234 0.058164
0.198053 -0.038235 0.058547
0.266385 -0.038237 0.058922
0.334891 -0.038238 0.059246
0.403606 -0.038242 0.059526
0.472446 -0.038245 0.059749
0.541281 -0.038250 0.059925
0.609863 -0.038255 0.060032
0.678153 -0.038261 0.060077
0.745716 -0.038269 0.060039
0.812421 -0.038276 0.059924
0.877914 -0.038285 0.059718
0.942473 -0.038302 0.059444
1.006243 -0.038308 0.059166
-0.038233 0.058026 0.058026
0.058026 0.058026 0.058026
0.137255 0.050237 0.050237
0.206775 0.039690 0.039690
0.273717 0.032547 0.032547
0.340761 0.028848 0.028848
0.408322 0.026865 0.026865
0.476320 0.025689 0.025689
0.544495 0.024999 0.024999
0.612563 0.024591 0.024591
0.680506 0.024357 0.024357
0.747715 0.024195 0.024195
0.814166 0.024045 0.024045
0.879476 0.023849 0.023849
0.943776 0.023557 0.023557
1.006247 0.040749 0.040749
-0.038235 0.129599 0.058163
0.040390 0.131575 0.040390
0.130191 0.130191 0.038258
0.201879 0.128671 0.034038
0.270898 0.127406 0.030056
0.339186 0.126660 0.027720
0.407419 0.126292 0.026375
0.475749 0.126114 0.025507
0.544150 0.126037 0.024964
0.612343 0.125968 0.024642
0.680303 0.125877 0.024443
0.747614 0.125705 0.024297
0.814062 0.125441 0.024151
0.879434 0.125054 0.023964
0.943748 0.124567 0.023659
1.006247 0.126526 0.040751
-0.038238 0.198053 0.058545
0.031156 0.199533 0.031156
0.126640 0.199130 0.030686
0.198493 0.198493 0.029926
0.268332 0.198492 0.027802
0.337396 0.198475 0.026534
0.406200 0.198547 0.025829
0.474925 0.198637 0.025322
0.543569 0.198704 0.024986
0.611938 0.198711 0.024773
0.680022 0.198646 0.024629
0.747431 0.198418 0.024513
0.813884 0.198017 0.024374
0.879304 0.197430 0.024173
0.943701 0.196690 0.023867
1.006247 0.197091 0.040749
-0.038243 0.266384 0.058917
0.027054 0.267460 0.027054
0.125439 0.267317 0.026949
0.197518 0.267062 0.026770
0.266725 0.266725 0.026563
0.336045 0.267283 0.025865
0.405123 0.267777 0.025569
0.474112 0.268147 0.025332
0.542952 0.268450 0.025167
0.611488 0.268571 0.025051
0.679683 0.268533 0.024965
0.747150 0.268273 0.024869
0.813724 0.267777 0.024733
0.879139 0.267003 0.024527
0.943562 0.266031 0.024200
1.006247 0.265634 0.040746
-0.038250 0.334891 0.059239
0.025765 0.335694 0.025765
0.125164 0.335641 0.025756
0.197358 0.335519 0.025748
0.266741 0.335358 0.025756
0.335149 0.335149 0.025799
0.404335 0.336024 0.025713
0.473439 0.336658 0.025643
0.542394 0.337179 0.025584
0.611030 0.337437 0.025537
0.679294 0.337464 0.025482
0.746837 0.337185 0.025394
0.813487 0.336589 0.025249
0.878951 0.335651 0.025023
0.943397 0.334433 0.024674
1.006247 0.333515 0.040745
-0.038261 0.403604 0.059516
0.025780 0.404238 0.025780
0.125254 0.404189 0.025806
0.197543 0.404136 0.025855
0.267071 0.404054 0.025941
0.335677 0.403923 0.026072
0.403820 0.403820 0.026257
0.472952 0.404731 0.026259
0.541951 0.405438 0.026262
0.610665 0.405818 0.026244
0.678985 0.405927 0.026194
0.746584 0.405610 0.026097
0.813226 0.404951 0.025932
0.878769 0.403839 0.025667
0.943250 0.402434 0.025280
1.006247 0.401095 0.040739
-0.038274 0.472445 0.059733
0.026295 0.472926 0.026295
0.125466 0.472914 0.026332
0.197829 0.472875 0.026398
0.267464 0.472832 0.026510
0.336218 0.472771 0.026673
0.404498 0.472697 0.026887
0.472608 0.472608 0.027168
0.541642 0.473511 0.027176
0.610368 0.474024 0.027169
0.678757 0.474165 0.027106
0.746355 0.473881 0.026987
0.813053 0.473103 0.026781
0.878571 0.471846 0.026466
0.943069 0.470196 0.026024
1.006246 0.468546 0.040735
-0.038288 0.541280 0.059904
0.027086 0.541651 0.027086
0.125706 0.541637 0.027123
0.198136 0.541635 0.027198
0.267855 0.541594 0.027315
0.336698 0.541565 0.027482
0.405109 0.541514 0.027701
0.473365 0.541442 0.027981
0.541389 0.541389 0.028320
0.610134 0.542007 0.028281
0.678574 0.542238 0.028199
0.746160 0.541922 0.028042
0.812880 0.541073 0.027783
0.878429 0.539645 0.027412
0.942922 0.537782 0.026899
1.006246 0.535836 0.040730
-0.038309 0.609862 0.060004
0.028015 0.610172 0.028015
0.125907 0.610166 0.028052
0.198330 0.610160 0.028119
0.268093 0.610141 0.028235
0.336994 0.610116 0.028396
0.405479 0.610085 0.028609
0.473791 0.610062 0.028877
0.541912 0.610023 0.029201
0.609982 0.609982 0.029580
0.678391 0.610230 0.029450
0.746027 0.609927 0.029242
0.812719 0.608967 0.028938
0.878272 0.607368 0.028496
0.942784 0.605292 0.027911
1.006246 0.603124 0.040722
-0.038330 0.678152 0.060040
0.028979 0.678431 0.028979
0.126046 0.678427 0.029013
0.198432 0.678418 0.029076
0.268174 0.678423 0.029185
0.337078 0.678404 0.029336
0.405588 0.678381 0.029533
0.473919 0.678354 0.029781
0.542064 0.678343 0.030083
0.610160 0.678271 0.030443
0.678239 0.678239 0.030849
0.745822 0.677895 0.030578
0.812587 0.676882 0.030202
0.878166 0.675133 0.029702
0.942675 0.672821 0.029041
1.006246 0.670395 0.040714
-0.038358 0.745713 0.059994
0.029899 0.745917 0.029899
0.126079 0.745912 0.029926
0.198354 0.745903 0.029984
0.268033 0.745889 0.030086
0.336880 0.745870 0.030223
0.405329 0.745844 0.030402
0.473623 0.745816 0.030631
0.541727 0.745831 0.030910
0.609787 0.745797 0.031235
0.677851 0.745837 0.031615
0.745800 0.745800 0.032038
0.812553 0.744683 0.031592
0.878051 0.742793 0.031015
0.942631 0.740229 0.030269
1.006246 0.737619 0.040709
-0.038383 0.812419 0.059868
0.030697 0.812544 0.030697
0.125984 0.812542 0.030720
0.198084 0.812537 0.030782
0.267634 0.812530 0.030866
0.336373 0.812521 0.030992
0.404688 0.812528 0.031162
0.472865 0.812568 0.031364
0.540874 0.812552 0.031619
0.608843 0.812533 0.031919
0.676801 0.812514 0.032255
0.744612 0.812495 0.032644
0.812476 0.812476 0.033076
0.878010 0.810368 0.032408
0.942592 0.807630 0.031570
1.006245 0.804780 0.040680
-0.038413 0.877912 0.059650
0.031312 0.878075 0.031312
0.125745 0.878073 0.031339
0.197608 0.878070 0.031389
0.266959 0.878064 0.031468
0.335497 0.878057 0.031584
0.403639 0.878048 0.031734
0.471630 0.878037 0.031919
0.539458 0.878024 0.032143
0.607231 0.878010 0.032415
0.674992 0.877995 0.032720
0.742725 0.877979 0.033069
0.810330 0.877963 0.033462
0.877948 0.877948 0.033899
0.942521 0.874970 0.032970
1.006245 0.871891 0.040650
-0.038451 0.942471 0.059362
0.031696 0.942584 0.031696
0.125383 0.942583 0.031709
0.196963 0.942580 0.031754
0.266055 0.942576 0.031823
0.334350 0.942571 0.031930
0.402268 0.942563 0.032061
0.470021 0.942555 0.032237
0.537616 0.942545 0.032431
0.605163 0.942534 0.032678
0.672710 0.942522 0.032953
0.740132 0.942508 0.033269
0.807567 0.942495 0.033620
0.874939 0.942482 0.034009
0.942509 0.942509 0.034438
1.006245 0.939135 0.040630
-0.038483 1.006241 0.059071
0.040642 1.006245 0.040642
0.126501 1.006245 0.040648
0.197076 1.006245 0.040644
0.265630 1.006245 0.040643
0.333510 1.006245 0.040642
0.401088 1.006245 0.040638
0.468542 1.006245 0.040640
0.535833 1.006245 0.040636
0.603122 1.006245 0.040635
0.670393 1.006245 0.040634
0.737616 1.006245 0.040631
0.804778 1.006245 0.040629
0.871890 1.006244 0.040623
0.939135 1.006244 0.040618
1.006244 1.006244 0.040610
-0.038233 -0.038233 0.129599
0.058164 -0.038233 0.129599
0.129599 -0.038234 0.129599
0.198053 -0.038235 0.130270
0.266385 -0.038237 0.130912
0.334891 -0.038238 0.131472
0.403606 -0.038243 0.131962
0.472446 -0.038245 0.132349
0.541281 -0.038248 0.132658
0.609863 -0.038256 0.132850
0.678153 -0.038261 0.132932
0.745716 -0.038269 0.132875
0.812421 -0.038277 0.132678
0.877914 -0.038285 0.132325
0.942473 -0.038302 0.131863
1.006243 -0.038308 0.131389
-0.038233 0.058164 0.129599
0.054369 0.054369 0.138824
0.136259 0.047915 0.136259
0.206041 0.038780 0.131769
0.273334 0.032198 0.128767
0.340549 0.028704 0.127273
0.408221 0.026804 0.126585
0.476253 0.025667 0.126257
0.544466 0.024992 0.126114
0.612537 0.024595 0.126005
0.680487 0.024364 0.125898
0.747694 0.024202 0.125716
0.814155 0.024060 0.125444
0.879468 0.023854 0.125050
0.943769 0.023566 0.124563
1.006247 0.040749 0.126526
-0.038235 0.129599 0.129599
0.039592 0.131049 0.131049
0.129599 0.129599 0.129599
0.209355 0.122247 0.122247
0.284488 0.108595 0.108595
0.355452 0.096904 0.096904
0.424090 0.087281 0.087281
0.491678 0.079259 0.079259
0.558847 0.072670 0.072670
0.625771 0.067242 0.067242
0.692513 0.062690 0.062690
0.758684 0.058795 0.058795
0.824167 0.055361 0.055361
0.888597 0.052217 0.052217
0.952256 0.049229 0.049229
1.006269 0.092039 0.092039
-0.038238 0.198053 0.130269
0.030989 0.199386 0.126827
0.107554 0.203863 0.107554
0.201364 0.201364 0.103812
0.277341 0.195696 0.096057
0.349056 0.190659 0.087789
0.418827 0.186748 0.081090
0.487640 0.183611 0.075134
0.555852 0.181093 0.069937
0.623536 0.179033 0.065421
0.690837 0.177308 0.061478
0.757408 0.175774 0.057988
0.823187 0.174361 0.054824
0.887854 0.172922 0.051868
0.951639 0.171528 0.049006
1.006269 0.181281 0.092037
-0.038243 0.266384 0.130911
0.027017 0.267413 0.125486
0.086790 0.272778 0.086790
0.189581 0.271391 0.084977
0.269471 0.269471 0.082451
0.342342 0.266308 0.078784
0.413293 0.263958 0.074634
0.483174 0.262026 0.070537
0.552298 0.260398 0.066705
0.620763 0.258937 0.063176
0.688712 0.257592 0.059929
0.755768 0.256257 0.056927
0.821872 0.254873 0.054105
0.886826 0.253390 0.051389
0.950856 0.251820 0.048702
1.006269 0.255757 0.092035
-0.038250 0.334890 0.131476
0.025761 0.335679 0.125180
0.074815 0.340034 0.074815
0.182530 0.339334 0.073914
0.262741 0.338307 0.072594
0.337030 0.337030 0.070968
0.408618 0.335640 0.068869
0.479170 0.334533 0.066341
0.548935 0.333568 0.063588
0.617996 0.332550 0.060905
0.686460 0.331474 0.058302
0.753923 0.330278 0.055779
0.820391 0.328909 0.053312
0.885617 0.327329 0.050854
0.949823 0.325554 0.048350
1.006269 0.326636 0.092034
-0.038261 0.403604 0.131956
0.025790 0.404221 0.125260
0.067454 0.407642 0.067454
0.178668 0.407270 0.066998
0.258974 0.406662 0.066313
0.333320 0.405935 0.065442
0.405090 0.405090 0.064436
0.475969 0.404577 0.062751
0.546107 0.404125 0.060953
0.615522 0.403499 0.058903
0.684323 0.402722 0.056818
0.752123 0.401638 0.054708
0.818843 0.400265 0.052557
0.884311 0.398568 0.050345
0.948729 0.396644 0.048019
1.006269 0.396019 0.092031
-0.038274 0.472445 0.132341
0.026308 0.472928 0.125466
0.062388 0.475697 0.062388
0.176397 0.475464 0.062150
0.256793 0.475126 0.061794
0.331140 0.474677 0.061328
0.402993 0.474143 0.060775
0.473544 0.473544 0.060168
0.543880 0.473472 0.058761
0.613476 0.473141 0.057292
0.682479 0.472567 0.055611
0.750484 0.471622 0.053818
0.817410 0.470280 0.051926
0.883054 0.468499 0.049923
0.947677 0.466403 0.047759
1.006269 0.464715 0.092038
-0.038290 0.541280 0.132651
0.027100 0.541646 0.125704
0.058821 0.543969 0.058821
0.174992 0.543814 0.058702
0.255467 0.543618 0.058514
0.329813 0.543299 0.058270
0.401708 0.542955 0.057976
0.472326 0.542525 0.057647
0.542118 0.542118 0.057304
0.611822 0.542028 0.056039
0.680930 0.541625 0.054701
0.749059 0.540786 0.053175
0.816153 0.539433 0.051478
0.881944 0.537583 0.049633
0.946628 0.535297 0.047604
1.006269 0.532917 0.092035
-0.038309 0.609862 0.132839
0.028026 0.610170 0.125909
0.056224 0.612108 0.056224
0.174020 0.611995 0.056166
0.254520 0.611878 0.056074
0.328849 0.611678 0.055953
0.400701 0.611456 0.055808
0.471342 0.611155 0.055645
0.541169 0.610849 0.055476
0.610522 0.610522 0.055314
0.679680 0.610256 0.054089
0.747901 0.609483 0.052756
0.815045 0.608131 0.051236
0.880931 0.606148 0.049512
0.945665 0.603734 0.047574
1.006268 0.600856 0.092031
-0.038330 0.678152 0.132921
0.028987 0.678430 0.126042
0.054235 0.680039 0.054235
0.173251 0.679988 0.054210
0.253751 0.679877 0.054172
0.328022 0.679767 0.054122
0.399842 0.679618 0.054064
0.470436 0.679414 0.054005
0.540264 0.679163 0.053942
0.609641 0.678925 0.053888
0.678712 0.678712 0.053850
0.746923 0.677947 0.052583
0.814144 0.676581 0.051162
0.880049 0.674441 0.049555
0.944900 0.671881 0.047688
1.006268 0.668688 0.092026
-0.038354 0.745713 0.132861
0.029905 0.745915 0.126076
0.052613 0.747400 0.052613
0.172539 0.747326 0.052607
0.252979 0.747293 0.052598
0.327145 0.747181 0.052590
0.398843 0.747023 0.052585
0.469363 0.746912 0.052581
0.539092 0.746728 0.052586
0.608394 0.746538 0.052602
0.677456 0.746387 0.052634
0.746179 0.746179 0.052686
0.813361 0.744768 0.051294
0.879338 0.742522 0.049730
0.944221 0.739710 0.047931
1.006268 0.736351 0.092025
-0.038383 0.812419 0.132658
0.030701 0.812543 0.125981
0.051173 0.813847 0.051173
0.171802 0.813808 0.051181
0.252106 0.813768 0.051189
0.326113 0.813684 0.051205
0.397616 0.813587 0.051229
0.468007 0.813494 0.051260
0.537606 0.813364 0.051299
0.606765 0.813216 0.051361
0.675704 0.813097 0.051433
0.744324 0.812923 0.051531
0.812767 0.812767 0.051648
0.878729 0.810406 0.050084
0.943594 0.807437 0.048294
1.006268 0.803903 0.091803
-0.038414 0.877912 0.132307
0.031325 0.878074 0.125748
0.049782 0.879197 0.049782
0.170951 0.879166 0.049797
0.251067 0.879118 0.049819
0.324844 0.879052 0.049845
0.396148 0.879023 0.049885
0.466297 0.878941 0.049939
0.535687 0.878819 0.050007
0.604653 0.878727 0.050086
0.673371 0.878615 0.050185
0.741820 0.878475 0.050303
0.810090 0.878350 0.050442
0.878212 0.878212 0.050608
0.943093 0.875002 0.048798
1.006267 0.871346 0.091498
-0.038452 0.942471 0.131838
0.031700 0.942584 0.125381
0.048326 0.943552 0.048326
0.170013 0.943528 0.048345
0.249887 0.943488 0.048367
0.323397 0.943473 0.048401
0.394463 0.943411 0.048446
0.464322 0.943365 0.048509
0.533465 0.943263 0.048585
0.602153 0.943188 0.048679
0.670642 0.943099 0.048789
0.738835 0.943015 0.048923
0.806829 0.942908 0.049074
0.874753 0.942793 0.049243
0.942713 0.942713 0.049443
1.006267 0.938907 0.091422
-0.038483 1.006241 0.131357
0.040642 1.006245 0.126500
0.091426 1.006268 0.091426
0.181049 1.006268 0.091425
0.255616 1.006268 0.091424
0.326548 1.006268 0.091423
0.395964 1.006267 0.091422
0.464658 1.006267 0.091423
0.532876 1.006267 0.091420
0.600825 1.006267 0.091420
0.668662 1.006267 0.091423
0.736321 1.006267 0.091422
0.803893 1.006267 0.091420
0.871344 1.006267 0.091418
0.938907 1.006267 0.091416
1.006267 1.006267 0.091418
-0.038233 -0.038233 0.198053
0.058548 -0.038234 0.198053
0.130270 -0.038234 0.198053
0.198053 -0.038235 0.198053
0.266385 -0.038237 0.199003
0.334891 -0.038239 0.199830
0.403606 -0.038242 0.200550
0.472446 -0.038246 0.201120
0.541281 -0.038249 0.201587
0.609863 -0.038256 0.201854
0.678153 -0.038261 0.201974
0.745716 -0.038269 0.201896
0.812421 -0.038277 0.201619
0.877914 -0.038285 0.201110
0.942473 -0.038297 0.200416
1.006243 -0.038309 0.199718
-0.038234 0.058547 0.198053
0.047558 0.047558 0.212905
0.134419 0.042718 0.209515
0.204754 0.037219 0.204754
0.272643 0.031563 0.201796
0.340189 0.028431 0.200201
0.408013 0.026689 0.199467
0.476128 0.025624 0.199131
0.544386 0.024981 0.199004
0.612486 0.024609 0.198882
0.680409 0.024379 0.198741
0.747652 0.024224 0.198467
0.814133 0.024082 0.198056
0.879451 0.023888 0.197457
0.943794 0.023596 0.196705
1.006247 0.040748 0.197091
-0.038236 0.130270 0.198053
0.036619 0.130404 0.204227
0.120318 0.120318 0.211482
0.209029 0.116187 0.209029
0.283894 0.105591 0.202044
0.354757 0.095383 0.195508
0.423467 0.086408 0.190068
0.491213 0.078732 0.185769
0.558497 0.072336 0.182484
0.625519 0.067029 0.179946
0.692304 0.062552 0.177893
0.758563 0.058704 0.176151
0.824063 0.055301 0.174614
0.888548 0.052181 0.173117
0.952168 0.049208 0.171642
1.006269 0.092033 0.181278
-0.038238 0.198053 0.198053
0.030674 0.199116 0.199116
0.106230 0.202980 0.202980
0.198052 0.198052 0.198052
0.281506 0.189330 0.189330
0.357521 0.176531 0.176531
0.430925 0.164112 0.164112
0.502563 0.151686 0.151686
0.572354 0.139948 0.139948
0.640626 0.129177 0.129177
0.707846 0.119403 0.119403
0.773992 0.110562 0.110562
0.839055 0.102507 0.102507
0.902957 0.095084 0.095084
0.965933 0.088067 0.088067
1.006312 0.143571 0.143571
-0.038243 0.266384 0.199002
0.026944 0.267312 0.197720
0.086153 0.272296 0.190384
0.165613 0.276728 0.165613
0.273977 0.273977 0.161941
0.350691 0.263869 0.162200
0.424450 0.256036 0.151536
0.496239 0.249302 0.141577
0.566541 0.243374 0.132159
0.635591 0.238077 0.123308
0.703552 0.233345 0.115028
0.770419 0.229113 0.107318
0.836139 0.225241 0.100113
0.900624 0.221622 0.093319
0.964016 0.218258 0.086774
1.006312 0.235035 0.143571
-0.038250 0.334890 0.199829
0.025757 0.335639 0.197420
0.074499 0.339797 0.182914
0.144870 0.346357 0.144870
0.254368 0.344393 0.142133
0.341815 0.341815 0.138592
0.416222 0.334879 0.137418
0.488843 0.330062 0.131091
0.560026 0.325884 0.123874
0.629936 0.322113 0.116864
0.698772 0.318659 0.110075
0.766344 0.315358 0.103547
0.832769 0.312184 0.097258
0.897738 0.308999 0.091169
0.961603 0.305901 0.085175
1.006312 0.312787 0.143571
-0.038261 0.403604 0.200548
0.025805 0.404188 0.197562
0.067297 0.407506 0.178838
0.129921 0.413530 0.129921
0.242191 0.412255 0.128199
0.329176 0.410558 0.125951
0.408528 0.408528 0.123251
0.481889 0.404451 0.120162
0.553733 0.401400 0.116073
0.624368 0.398534 0.110595
