luts/ColorsHigh.cube
LUT_3D_SIZE 6
-0.028638 -0.028638 -0.028638
0.202051 -0.028641 -0.028641
0.407716 -0.028652 -0.028652
0.613116 -0.028672 -0.028672
0.814312 -0.028706 -0.028706
1.006242 -0.028750 -0.028750
-0.028646 0.202050 -0.028646
0.202050 0.202050 -0.028649
0.407715 0.203232 -0.028659
0.613116 0.203659 -0.028681
0.814312 0.202835 -0.028714
1.006242 0.200482 -0.028759
-0.028682 0.407715 -0.028682
0.203230 0.407715 -0.028684
0.407714 0.407714 -0.028695
0.613116 0.408572 -0.028716
0.814312 0.406932 -0.028749
1.006241 0.402238 -0.028791
-0.028754 0.613115 -0.028754
0.203652 0.613115 -0.028756
0.408571 0.613115 -0.028766
0.613115 0.613115 -0.028785
0.814311 0.610650 -0.028817
1.006241 0.603620 -0.028860
-0.028864 0.814310 -0.028864
0.202822 0.814310 -0.028866
0.406927 0.814310 -0.028876
0.610623 0.814310 -0.028897
0.814310 0.814310 -0.028931
1.006240 0.804986 -0.028967
-0.029012 1.006240 -0.029012
0.200468 1.006240 -0.029012
0.402229 1.006240 -0.029022
0.603617 1.006240 -0.029044
0.804985 1.006240 -0.029075
1.006239 1.006239 -0.029120
-0.028639 -0.028639 0.202051
0.202051 -0.028642 0.202051
0.407716 -0.028653 0.203233
0.613116 -0.028673 0.203659
0.814312 -0.028707 0.202836
1.006242 -0.028751 0.200483
-0.028647 0.202050 0.202050
0.202050 0.202050 0.202050
0.455273 0.150634 0.150634
0.655549 0.114741 0.114741
0.847182 0.095092 0.095092
1.006293 0.164927 0.164927
-0.028682 0.407715 0.203230
0.114953 0.418080 0.114953
0.411263 0.411263 0.109162
0.630098 0.400952 0.099632
0.833753 0.391782 0.089347
1.006293 0.391344 0.164925
-0.028754 0.613115 0.203652
0.092606 0.619294 0.092606
0.392412 0.617565 0.091570
0.614818 0.614818 0.089947
0.822207 0.608186 0.084586
1.006292 0.598809 0.164931
-0.028864 0.814310 0.202822
0.083025 0.818427 0.083025
0.383801 0.817817 0.082842
0.604073 0.816708 0.082531
0.815264 0.815264 0.082205
1.006292 0.803108 0.164291
-0.029013 1.006240 0.200468
0.163015 1.006294 0.163015
0.390821 1.006294 0.163014
0.598577 1.006293 0.163013
0.803038 1.006293 0.163011
1.006293 1.006293 0.163009
-0.028643 -0.028643 0.407716
0.203233 -0.028645 0.407716
0.407716 -0.028655 0.407716
0.613116 -0.028677 0.408574
0.814312 -0.028710 0.406933
1.006242 -0.028755 0.402239
-0.028651 0.203233 0.407716
0.170912 0.170912 0.470248
0.446768 0.139121 0.446768
0.651289 0.112031 0.415381
0.845294 0.094251 0.397586
1.006293 0.164767 0.391290
-0.028685 0.407714 0.407714
0.112738 0.415448 0.415448
0.407714 0.407714 0.407714
0.678031 0.358914 0.358914
0.902664 0.292569 0.292569
1.006460 0.357950 0.357950
-0.028758 0.613115 0.408571
0.092233 0.618692 0.393179
0.281206 0.636993 0.281206
0.622887 0.622887 0.266612
0.855417 0.592996 0.243904
1.006459 0.584898 0.357947
-0.028868 0.814310 0.406927
0.082962 0.818218 0.384006
0.219971 0.832999 0.219971
0.569998 0.827217 0.215327
0.819470 0.819470 0.209118
1.006468 0.797475 0.355558
-0.029014 1.006240 0.402229
0.163015 1.006294 0.390822
0.342889 1.006515 0.342889
0.579010 1.006514 0.342888
0.795653 1.006514 0.342888
1.006514 1.006514 0.342887
-0.028650 -0.028650 0.613117
0.203661 -0.028653 0.613117
0.408574 -0.028663 0.613116
0.613116 -0.028684 0.613116
0.814312 -0.028718 0.610651
1.006242 -0.028761 0.603621
-0.028658 0.203661 0.613117
0.141234 0.141234 0.701997
0.429961 0.123687 0.672794
0.644378 0.107503 0.644378
0.841942 0.092713 0.622976
1.006294 0.164415 0.598748
-0.028694 0.408573 0.613116
0.105898 0.408723 0.641615
0.361593 0.361593 0.689726
0.674174 0.329708 0.674174
0.899068 0.278913 0.627503
1.006471 0.355036 0.583749
-0.028764 0.613115 0.613115
0.091552 0.617517 0.617517
0.275797 0.631826 0.631826
0.613115 0.613115 0.613115
0.880001 0.568464 0.568464
1.006560 0.582612 0.582612
-0.028874 0.814310 0.610623
0.082832 0.817795 0.604879
0.218326 0.830937 0.572889
0.470291 0.842797 0.470291
0.825732 0.825732 0.448060
1.006560 0.797044 0.582610
-0.029022 1.006240 0.603618
0.163014 1.006294 0.598577
0.342889 1.006514 0.579010
0.553312 1.006845 0.553312
0.786390 1.006845 0.553311
1.006844 1.006844 0.553310
-0.028661 -0.028661 0.814313
0.202835 -0.028663 0.814313
0.406935 -0.028674 0.814313
0.610652 -0.028696 0.814312
0.814312 -0.028728 0.814312
1.006242 -0.028772 0.804988
-0.028670 0.202834 0.814313
0.115771 0.115771 0.899415
0.414187 0.107400 0.878088
0.632549 0.097912 0.854709
0.837595 0.090701 0.837595
1.006294 0.163837 0.803085
-0.028704 0.406933 0.814312
0.096868 0.401057 0.852202
0.332480 0.332480 0.910991
0.637715 0.305551 0.906467
0.889185 0.264732 0.889185
1.006488 0.350136 0.796686
-0.028775 0.610650 0.814312
0.086583 0.612386 0.827849
0.254634 0.608683 0.876841
0.560658 0.560658 0.889708
0.876863 0.530671 0.876863
1.006669 0.571819 0.793067
-0.028886 0.814310 0.814310
0.082658 0.817182 0.817182
0.215830 0.827853 0.827853
0.462181 0.836822 0.836822
0.814309 0.814309 0.814309
1.006455 0.806785 0.806785
-0.029033 1.006240 0.804985
0.163014 1.006294 0.803039
0.342889 1.006514 0.795653
0.553312 1.006845 0.786390
0.790022 1.006920 0.790022
1.006920 1.006920 0.790021
-0.028676 -0.028676 1.006242
0.200489 -0.028678 1.006242
0.402242 -0.028688 1.006242
0.603622 -0.028709 1.006242
0.804989 -0.028742 1.006242
1.006241 -0.028787 1.006241
-0.028684 0.200489 1.006242
0.163031 0.163031 1.006296
0.390830 0.163030 1.006296
0.598580 0.163028 1.006296
0.803042 0.163026 1.006296
1.006295 0.163029 1.006295
-0.028718 0.402241 1.006242
0.163029 0.390829 1.006296
0.342896 0.342896 1.006517
0.579033 0.342895 1.006517
0.795656 0.342894 1.006516
1.006516 0.342894 1.006516
-0.028785 0.603621 1.006241
0.163029 0.598579 1.006295
0.342894 0.579032 1.006516
0.553317 0.553317 1.006847
0.786393 0.553316 1.006847
1.006846 0.553315 1.006846
-0.028896 0.804987 1.006241
0.163022 0.803040 1.006294
0.342892 0.795655 1.006515
0.553314 0.786392 1.006846
0.790023 0.790023 1.006921
1.006921 0.790023 1.006921
-0.029047 1.006240 1.006240
0.163013 1.006293 1.006293
0.342888 1.006514 1.006514
0.553311 1.006845 1.006845
0.790021 1.006920 1.006920
1.006239 1.006239 1.006239
