luts/ColorsLow.cube
LUT_3D_SIZE 6
-0.028638 -0.028638 -0.028638
0.202051 -0.028641 -0.028641
0.407716 -0.028652 -0.028652
0.613116 -0.028672 -0.028672
0.814312 -0.028706 -0.028706
1.006242 -0.028750 -0.028750
-0.028646 0.202050 -0.028646
0.202050 0.202050 -0.028649
0.407715 0.203232 -0.028659
0.613116 0.203659 -0.028681
0.814312 0.202835 -0.028714
1.006242 0.200482 -0.028759
-0.028682 0.407715 -0.028682
0.203230 0.407715 -0.028684
0.407714 0.407714 -0.028695
0.613116 0.408572 -0.028716
0.814312 0.406932 -0.028749
1.006241 0.402238 -0.028791
-0.028754 0.613115 -0.028754
0.203652 0.613115 -0.028756
0.408571 0.613115 -0.028766
0.613115 0.613115 -0.028785
0.814311 0.610650 -0.028817
1.006241 0.603620 -0.028860
-0.028864 0.814310 -0.028864
0.202822 0.814310 -0.028866
0.406927 0.814310 -0.028876
0.610623 0.814310 -0.028897
0.814310 0.814310 -0.028931
1.006240 0.804986 -0.028967
-0.029012 1.006240 -0.029012
0.200468 1.006240 -0.029012
0.402229 1.006240 -0.029022
0.603617 1.006240 -0.029044
0.804985 1.006240 -0.029075
1.006239 1.006239 -0.029120
-0.028639 -0.028639 0.202051
0.202051 -0.028642 0.202051
0.407716 -0.028653 0.203233
0.613116 -0.028673 0.203659
0.814312 -0.028707 0.202836
1.006242 -0.028751 0.200483
-0.028647 0.202050 0.202050
0.202050 0.202050 0.202050
0.426017 0.180903 0.180903
0.639301 0.148715 0.148715
0.839414 0.121548 0.121548
1.006293 0.164927 0.164927
-0.028682 0.407715 0.203230
0.147778 0.416205 0.147778
0.411979 0.411979 0.140211
0.626681 0.401986 0.127070
0.830600 0.393030 0.110878
1.006293 0.391344 0.164925
-0.028754 0.613115 0.203652
0.113955 0.618769 0.113955
0.394331 0.617361 0.111807
0.614954 0.614954 0.108221
0.821482 0.608245 0.099993
1.006292 0.598809 0.164931
-0.028864 0.814310 0.202822
0.095722 0.818171 0.095722
0.385049 0.817626 0.095085
0.604400 0.816654 0.093946
0.815278 0.815278 0.092487
1.006292 0.803108 0.164291
-0.029013 1.006240 0.200468
0.163015 1.006294 0.163015
0.390821 1.006294 0.163014
0.598577 1.006293 0.163013
0.803038 1.006293 0.163011
1.006293 1.006293 0.163009
-0.028643 -0.028643 0.407716
0.203233 -0.028645 0.407716
0.407716 -0.028655 0.407716
0.613116 -0.028677 0.408574
0.814312 -0.028710 0.406933
1.006242 -0.028755 0.402239
-0.028651 0.203233 0.407716
0.181211 0.181211 0.429243
0.425731 0.170042 0.425731
0.637761 0.145077 0.411370
0.838284 0.120058 0.397863
1.006293 0.164767 0.391290
-0.028685 0.407714 0.407714
0.144996 0.414712 0.414712
0.407714 0.407714 0.407714
0.635850 0.388191 0.388191
0.846263 0.353756 0.353756
1.006460 0.357950 0.357950
-0.028758 0.613115 0.408571
0.113191 0.618247 0.395046
0.346162 0.627736 0.346162
0.622856 0.622856 0.335685
0.837001 0.597679 0.319192
1.006459 0.584898 0.357947
-0.028868 0.814310 0.406927
0.095501 0.818005 0.385264
0.286260 0.827583 0.286260
0.580402 0.824241 0.280121
0.819440 0.819440 0.271424
1.006468 0.797475 0.355558
-0.029014 1.006240 0.402229
0.163015 1.006294 0.390822
0.342889 1.006515 0.342889
0.579010 1.006514 0.342888
0.795653 1.006514 0.342888
1.006514 1.006514 0.342887
-0.028650 -0.028650 0.613117
0.203661 -0.028653 0.613117
0.408574 -0.028663 0.613116
0.613116 -0.028684 0.613116
0.814312 -0.028718 0.610651
1.006242 -0.028761 0.603621
-0.028658 0.203661 0.613117
0.169533 0.169533 0.644297
0.416827 0.157089 0.643525
0.634804 0.138591 0.634804
0.836181 0.117298 0.619812
1.006294 0.164415 0.598748
-0.028694 0.408573 0.613116
0.136348 0.407419 0.633429
0.372769 0.372769 0.641174
0.636730 0.364671 0.636730
0.845527 0.345311 0.609856
1.006471 0.355036 0.583749
-0.028764 0.613115 0.613115
0.111752 0.617329 0.617329
0.342592 0.626130 0.626130
0.613115 0.613115 0.613115
0.836038 0.595180 0.595180
1.006560 0.582612 0.582612
-0.028874 0.814310 0.610623
0.095060 0.817606 0.605168
0.284108 0.826404 0.582654
0.551305 0.827659 0.551305
0.823002 0.823002 0.543064
1.006560 0.797044 0.582610
-0.029022 1.006240 0.603618
0.163014 1.006294 0.598577
0.342889 1.006514 0.579010
0.553312 1.006845 0.553312
0.786390 1.006845 0.553311
1.006844 1.006844 0.553310
-0.028661 -0.028661 0.814313
0.202835 -0.028663 0.814313
0.406935 -0.028674 0.814313
0.610652 -0.028696 0.814312
0.814312 -0.028728 0.814312
1.006242 -0.028772 0.804988
-0.028670 0.202834 0.814313
0.148678 0.148678 0.857240
0.407795 0.139206 0.852967
0.625681 0.125928 0.843605
0.833283 0.113508 0.833283
1.006294 0.163837 0.803085
-0.028704 0.406933 0.814312
0.124275 0.400340 0.842251
0.351803 0.351803 0.852740
0.611763 0.344023 0.849267
0.844848 0.330245 0.844848
1.006488 0.350136 0.796686
-0.028775 0.610650 0.814312
0.105017 0.611830 0.826118
0.322650 0.602244 0.843013
0.574593 0.574593 0.841413
0.836876 0.566994 0.836876
1.006669 0.571819 0.793067
-0.028886 0.814310 0.814310
0.094433 0.817037 0.817037
0.280802 0.824646 0.824646
0.548653 0.826056 0.826056
0.814309 0.814309 0.814309
1.006455 0.806785 0.806785
-0.029033 1.006240 0.804985
0.163014 1.006294 0.803039
0.342889 1.006514 0.795653
0.553312 1.006845 0.786390
0.790022 1.006920 0.790022
1.006920 1.006920 0.790021
-0.028676 -0.028676 1.006242
0.200489 -0.028678 1.006242
0.402242 -0.028688 1.006242
0.603622 -0.028709 1.006242
0.804989 -0.028742 1.006242
1.006241 -0.028787 1.006241
-0.028684 0.200489 1.006242
0.163031 0.163031 1.006296
0.390830 0.163030 1.006296
0.598580 0.163028 1.006296
0.803042 0.163026 1.006296
1.006295 0.163029 1.006295
-0.028718 0.402241 1.006242
0.163029 0.390829 1.006296
0.342896 0.342896 1.006517
0.579033 0.342895 1.006517
0.795656 0.342894 1.006516
1.006516 0.342894 1.006516
-0.028785 0.603621 1.006241
0.163029 0.598579 1.006295
0.342894 0.579032 1.006516
0.553317 0.553317 1.006847
0.786393 0.553316 1.006847
1.006846 0.553315 1.006846
-0.028896 0.804987 1.006241
0.163022 0.803040 1.006294
0.342892 0.795655 1.006515
0.553314 0.786392 1.006846
0.790023 0.790023 1.006921
1.006921 0.790023 1.006921
-0.029047 1.006240 1.006240
0.163013 1.006293 1.006293
0.342888 1.006514 1.006514
0.553311 1.006845 1.006845
0.790021 1.006920 1.006920
1.006239 1.006239 1.006239
