luts/ColorsMid.cube
LUT_3D_SIZE 6
-0.038231 -0.038231 -0.038231
0.198053 -0.038235 -0.038235
0.403606 -0.038242 -0.038242
0.609863 -0.038255 -0.038255
0.812421 -0.038276 -0.038276
1.006243 -0.038308 -0.038308
-0.038238 0.198053 -0.038238
0.198053 0.198053 -0.038240
0.403605 0.200550 -0.038247
0.609863 0.201853 -0.038261
0.812421 0.201618 -0.038284
1.006243 0.199718 -0.038313
-0.038261 0.403604 -0.038261
0.200548 0.403604 -0.038262
0.403604 0.403604 -0.038268
0.609863 0.406218 -0.038283
0.812421 0.405727 -0.038306
1.006243 0.401989 -0.038335
-0.038309 0.609862 -0.038309
0.201856 0.609862 -0.038310
0.406216 0.609862 -0.038316
0.609862 0.609862 -0.038330
0.812420 0.609137 -0.038352
1.006242 0.603518 -0.038382
-0.038383 0.812419 -0.038383
0.201606 0.812419 -0.038385
0.405722 0.812419 -0.038391
0.609136 0.812419 -0.038407
0.812419 0.812419 -0.038427
1.006241 0.804930 -0.038453
-0.038483 1.006241 -0.038483
0.199703 1.006241 -0.038484
0.401980 1.006241 -0.038490
0.603516 1.006241 -0.038504
0.804929 1.006241 -0.038527
1.006240 1.006240 -0.038557
-0.038233 -0.038233 0.198053
0.198053 -0.038235 0.198053
0.403606 -0.038242 0.200550
0.609863 -0.038256 0.201854
0.812421 -0.038277 0.201619
1.006243 -0.038309 0.199718
-0.038238 0.198053 0.198053
0.198052 0.198052 0.198052
0.430925 0.164112 0.164112
0.640626 0.129177 0.129177
0.839055 0.102507 0.102507
1.006312 0.143571 0.143571
-0.038261 0.403604 0.200548
0.129921 0.413530 0.129921
0.408528 0.408528 0.123251
0.624368 0.398534 0.110595
0.829122 0.390207 0.094230
1.006312 0.386042 0.143570
-0.038310 0.609862 0.201856
0.099795 0.615792 0.099795
0.390997 0.614310 0.098096
0.611870 0.611870 0.095312
0.819587 0.606298 0.086118
1.006311 0.596481 0.143566
-0.038384 0.812419 0.201606
0.082960 0.816289 0.082960
0.382809 0.815695 0.082517
0.602568 0.814708 0.081742
0.813401 0.813401 0.080766
1.006311 0.802203 0.142754
-0.038483 1.006241 0.199703
0.141186 1.006312 0.141186
0.385514 1.006312 0.141185
0.596266 1.006312 0.141184
0.802132 1.006312 0.141183
1.006312 1.006312 0.141181
-0.038237 -0.038237 0.403606
0.200551 -0.038238 0.403606
0.403605 -0.038244 0.403605
0.609863 -0.038258 0.406219
0.812421 -0.038280 0.405729
1.006243 -0.038310 0.401991
-0.038241 0.200551 0.403606
0.167218 0.167218 0.435901
0.428536 0.151551 0.428536
0.638319 0.125884 0.408981
0.837764 0.101315 0.394980
1.006312 0.143349 0.385983
-0.038264 0.403604 0.403604
0.127446 0.411689 0.411689
0.403604 0.403604 0.403604
0.645507 0.368768 0.368768
0.860553 0.315865 0.315865
1.006556 0.327214 0.327214
-0.038311 0.609862 0.406216
0.099194 0.615283 0.391720
0.309613 0.629845 0.309613
0.622404 0.622404 0.298202
0.841234 0.590649 0.278087
1.006556 0.573198 0.327213
-0.038388 0.812419 0.405723
0.082800 0.816082 0.383010
0.246189 0.828056 0.246189
0.572319 0.824041 0.240885
0.818403 0.818403 0.233491
1.006565 0.793122 0.324153
-0.038486 1.006241 0.401980
0.141185 1.006312 0.385514
0.307844 1.006620 0.307844
0.566447 1.006620 0.307843
0.791050 1.006620 0.307842
1.006619 1.006619 0.307841
-0.038241 -0.038241 0.609863
0.201855 -0.038243 0.609863
0.406220 -0.038247 0.609863
0.609863 -0.038262 0.609863
0.812421 -0.038284 0.609139
1.006243 -0.038313 0.603520
-0.038246 0.201855 0.609863
0.150102 0.150102 0.656789
0.416798 0.136798 0.648633
0.634202 0.120115 0.634202
0.835357 0.099108 0.618374
1.006312 0.142908 0.596427
-0.038268 0.406219 0.609863
0.118199 0.404405 0.632459
0.348724 0.348724 0.652019
0.644934 0.335939 0.644934
0.858994 0.304977 0.607810
1.006569 0.323462 0.571854
-0.038315 0.609862 0.609862
0.098058 0.614269 0.614269
0.305573 0.627276 0.627276
0.609861 0.609861 0.609861
0.847028 0.576457 0.576457
1.006753 0.559164 0.559164
-0.038393 0.812419 0.609136
0.082507 0.815676 0.603316
0.244323 0.826651 0.574609
0.509181 0.831899 0.509181
0.824477 0.824477 0.495916
1.006753 0.788493 0.559162
-0.038490 1.006241 0.603516
0.141185 1.006312 0.596266
0.307844 1.006620 0.566447
0.520974 1.007098 0.520974
0.775323 1.007098 0.520974
1.007097 1.007097 0.520973
-0.038249 -0.038249 0.812422
0.201623 -0.038253 0.812422
0.405730 -0.038257 0.812421
0.609139 -0.038271 0.812421
0.812421 -0.038292 0.812421
1.006243 -0.038323 0.804932
-0.038253 0.201623 0.812422
0.124929 0.124929 0.866855
0.406110 0.116721 0.857568
0.625137 0.105849 0.844167
0.832109 0.096120 0.832109
1.006313 0.142190 0.802179
-0.038275 0.405729 0.812421
0.104523 0.397550 0.842525
0.319160 0.319160 0.868099
0.611432 0.307136 0.863955
0.856025 0.287803 0.856025
1.006591 0.317154 0.792222
-0.038326 0.609138 0.812420
0.089685 0.609954 0.824333
0.279817 0.597460 0.851454
0.548200 0.548200 0.853581
0.846510 0.535576 0.846510
1.006886 0.544980 0.783437
-0.038401 0.812419 0.812419
0.082067 0.815128 0.815128
0.241480 0.824477 0.824477
0.504657 0.829407 0.829407
0.812418 0.812418 0.812418
1.006632 0.798468 0.798468
-0.038498 1.006241 0.804929
0.141185 1.006312 0.802132
0.307843 1.006620 0.791050
0.520974 1.007098 0.775323
0.776680 1.007222 0.776680
1.007222 1.007222 0.776679
-0.038258 -0.038258 1.006243
0.199725 -0.038259 1.006243
0.401993 -0.038265 1.006243
0.603521 -0.038279 1.006243
0.804933 -0.038303 1.006243
1.006243 -0.038333 1.006243
-0.038263 0.199724 1.006243
0.141201 0.141201 1.006315
0.385521 0.141201 1.006315
0.596269 0.141200 1.006314
0.802135 0.141198 1.006314
1.006314 0.141196 1.006314
-0.038284 0.401992 1.006243
0.141200 0.385520 1.006314
0.307853 0.307853 1.006622
0.566450 0.307852 1.006622
0.791053 0.307851 1.006622
1.006621 0.307850 1.006621
-0.038332 0.603519 1.006243
0.141196 0.596269 1.006314
0.307850 0.566449 1.006622
0.520980 0.520980 1.007100
0.775326 0.520979 1.007100
1.007099 0.520978 1.007099
-0.038407 0.804931 1.006242
0.141191 0.802133 1.006313
0.307847 0.791052 1.006621
0.520977 0.775325 1.007099
0.776681 0.776681 1.007223
1.007223 0.776681 1.007223
-0.038507 1.006241 1.006241
0.141184 1.006312 1.006312
0.307843 1.006620 1.006620
0.520974 1.007098 1.007098
0.776679 1.007222 1.007222
1.006240 1.006240 1.006240
